(.../Documents/EAGLE/ulps/pcb-gcode.ulp)
(Copyright 2005 - 2012 by John Johnson)
(See readme.txt for licensing terms.)
(This file generated from the board:)
(.../projects/ESP32_HUB75/ESP_Hub.brd)
(Current profile is .../EAGLE/ulps/profiles/generic.pp  )
(This file generated 18.06.22 11:07)
(Settings from pcb-machine.h)
(  Tool Size)
(0.1500 )
(Z Axis Settings)
(  High     Up        Down     Drill)
(20.4000 	2.0000 	-0.1500 	-1.9000 )
(spindle on time = 3.0000)
(milling depth = -1.3000)
(text depth = -0.1000)
(tool change at 0.0000 0.0000 20.4000 )
(feed rate xy = F208.00 )
(feed rate z  = F100.00 )
(Settings from pcb-defaults.h)
(isolate min = 0.1000)
(isolate max = 0.5000)
(isolate step = 0.1000)
(Generated bottom outlines, bottom drill, )
(Unit of measure: mm)
( Tool|       Size       |  Min Sub |  Max Sub |   Count )
( T01  1.000mm 0.0394in 0.0000in 0.0000in )
( T02  1.016mm 0.0400in 0.0000in 0.0000in )
(Metric Mode)
G21
(Absolute Coordinates)
G90
M05
G00 Z20.4000 
G00 X0.0000 Y0.0000 
M06 T01  ; 1.0000 
G00 Z2.0000 
M03
G04 P3.000000
G00 Z2.000000
G00 X-25.2000 Y33.0300 
G01 Z-1.9000 F100.00 
G01 Z2.000000
(R2.0000  P2.000000)
(G00 Z2.000000)
G00 X-25.2000 Y35.5700 
G01 Z-1.900000
G01 Z2.000000
(G00 Z2.000000)
G00 X-25.2000 Y38.1100 
G01 Z-1.900000
G01 Z2.000000
(G00 Z2.000000)
G00 X-25.2000 Y40.6500 
G01 Z-1.900000
G01 Z2.000000
(G00 Z2.000000)
G00 X-25.2000 Y43.1900 
G01 Z-1.900000
G01 Z2.000000
(G00 Z2.000000)
G00 X-25.2000 Y45.7300 
G01 Z-1.900000
G01 Z2.000000
(G00 Z2.000000)
G00 X-25.2000 Y48.2700 
G01 Z-1.900000
G01 Z2.000000
(G00 Z2.000000)
G00 X-25.2000 Y5.0900 
G01 Z-1.900000
G01 Z2.000000
(G00 Z2.000000)
G00 X-25.2000 Y7.6300 
G01 Z-1.900000
G01 Z2.000000
(G00 Z2.000000)
G00 X-25.2000 Y10.1700 
G01 Z-1.900000
G01 Z2.000000
(G00 Z2.000000)
G00 X-25.2000 Y12.7100 
G01 Z-1.900000
G01 Z2.000000
(G00 Z2.000000)
G00 X-25.2000 Y15.2500 
G01 Z-1.900000
G01 Z2.000000
(G00 Z2.000000)
G00 X-25.2000 Y17.7900 
G01 Z-1.900000
G01 Z2.000000
(G00 Z2.000000)
G00 X-25.2000 Y20.3300 
G01 Z-1.900000
G01 Z2.000000
(G00 Z2.000000)
G00 X-25.2000 Y22.8700 
G01 Z-1.900000
G01 Z2.000000
(G00 Z2.000000)
G00 X-25.2000 Y25.4100 
G01 Z-1.900000
G01 Z2.000000
(G00 Z2.000000)
G00 X-25.2000 Y2.5500 
G01 Z-1.900000
G01 Z2.000000
(G00 Z2.000000)
G00 X-25.2000 Y27.9500 
G01 Z-1.900000
G01 Z2.000000
(G00 Z2.000000)
G00 X-25.2000 Y30.4900 
G01 Z-1.900000
G01 Z2.000000
(G00 Z2.000000)
G00 X-2.5500 Y33.0300 
G01 Z-1.900000
G01 Z2.000000
(G00 Z2.000000)
G00 X-2.5500 Y35.5700 
G01 Z-1.900000
G01 Z2.000000
(G00 Z2.000000)
G00 X-2.5500 Y38.1100 
G01 Z-1.900000
G01 Z2.000000
(G00 Z2.000000)
G00 X-2.5500 Y40.6500 
G01 Z-1.900000
G01 Z2.000000
(G00 Z2.000000)
G00 X-2.5500 Y43.1900 
G01 Z-1.900000
G01 Z2.000000
(G00 Z2.000000)
G00 X-2.5500 Y45.7300 
G01 Z-1.900000
G01 Z2.000000
(G00 Z2.000000)
G00 X-2.5500 Y48.2700 
G01 Z-1.900000
G01 Z2.000000
(G00 Z2.000000)
G00 X-2.5500 Y5.0900 
G01 Z-1.900000
G01 Z2.000000
(G00 Z2.000000)
G00 X-2.5500 Y7.6300 
G01 Z-1.900000
G01 Z2.000000
(G00 Z2.000000)
G00 X-2.5500 Y10.1700 
G01 Z-1.900000
G01 Z2.000000
(G00 Z2.000000)
G00 X-2.5500 Y12.7100 
G01 Z-1.900000
G01 Z2.000000
(G00 Z2.000000)
G00 X-2.5500 Y15.2500 
G01 Z-1.900000
G01 Z2.000000
(G00 Z2.000000)
G00 X-2.5500 Y17.7900 
G01 Z-1.900000
G01 Z2.000000
(G00 Z2.000000)
G00 X-2.5500 Y20.3300 
G01 Z-1.900000
G01 Z2.000000
(G00 Z2.000000)
G00 X-2.5500 Y22.8700 
G01 Z-1.900000
G01 Z2.000000
(G00 Z2.000000)
G00 X-2.5500 Y25.4100 
G01 Z-1.900000
G01 Z2.000000
(G00 Z2.000000)
G00 X-2.5500 Y2.5500 
G01 Z-1.900000
G01 Z2.000000
(G00 Z2.000000)
G00 X-2.5500 Y27.9500 
G01 Z-1.900000
G01 Z2.000000
(G00 Z2.000000)
G00 X-2.5500 Y30.4900 
G01 Z-1.900000
G01 Z2.000000
M05
G00 Z20.4000 
M06 T02  ; 1.0160 
G00 Z2.0000 
M03
G04 P3.000000
G00 Z2.000000
G00 X-12.7000 Y33.0200 
G01 Z-1.9000 F100.00 
G01 Z2.000000
(R2.0000  P2.000000)
(G00 Z2.000000)
G00 X-12.7000 Y35.5600 
G01 Z-1.900000
G01 Z2.000000
(G00 Z2.000000)
G00 X-12.7000 Y17.7800 
G01 Z-1.900000
G01 Z2.000000
(G00 Z2.000000)
G00 X-12.7000 Y20.3200 
G01 Z-1.900000
G01 Z2.000000
(G00 Z2.000000)
G00 X-12.7000 Y22.8600 
G01 Z-1.900000
G01 Z2.000000
(G00 Z2.000000)
G00 X-12.7000 Y25.4000 
G01 Z-1.900000
G01 Z2.000000
(G00 Z2.000000)
G00 X-12.7000 Y27.9400 
G01 Z-1.900000
G01 Z2.000000
(G00 Z2.000000)
G00 X-12.7000 Y30.4800 
G01 Z-1.900000
G01 Z2.000000
(G00 Z2.000000)
G00 X-15.2400 Y33.0200 
G01 Z-1.900000
G01 Z2.000000
(G00 Z2.000000)
G00 X-15.2400 Y35.5600 
G01 Z-1.900000
G01 Z2.000000
(G00 Z2.000000)
G00 X-15.2400 Y17.7800 
G01 Z-1.900000
G01 Z2.000000
(G00 Z2.000000)
G00 X-15.2400 Y20.3200 
G01 Z-1.900000
G01 Z2.000000
(G00 Z2.000000)
G00 X-15.2400 Y22.8600 
G01 Z-1.900000
G01 Z2.000000
(G00 Z2.000000)
G00 X-15.2400 Y25.4000 
G01 Z-1.900000
G01 Z2.000000
(G00 Z2.000000)
G00 X-15.2400 Y27.9400 
G01 Z-1.900000
G01 Z2.000000
(G00 Z2.000000)
G00 X-15.2400 Y30.4800 
G01 Z-1.900000
G01 Z2.000000
(G00 Z2.000000)
G00 X-27.9400 Y33.0200 
G01 Z-1.900000
G01 Z2.000000
(G00 Z2.000000)
G00 X-27.9400 Y35.5600 
G01 Z-1.900000
G01 Z2.000000
(G00 Z2.000000)
G00 X-27.9400 Y38.1000 
G01 Z-1.900000
G01 Z2.000000
(G00 Z2.000000)
G00 X-27.9400 Y40.6400 
G01 Z-1.900000
G01 Z2.000000
(G00 Z2.000000)
G00 X-27.9400 Y43.1800 
G01 Z-1.900000
G01 Z2.000000
(G00 Z2.000000)
G00 X-27.9400 Y45.7200 
G01 Z-1.900000
G01 Z2.000000
(G00 Z2.000000)
G00 X-27.9400 Y48.2600 
G01 Z-1.900000
G01 Z2.000000
(G00 Z2.000000)
G00 X-27.9400 Y5.0800 
G01 Z-1.900000
G01 Z2.000000
(G00 Z2.000000)
G00 X-27.9400 Y7.6200 
G01 Z-1.900000
G01 Z2.000000
(G00 Z2.000000)
G00 X-27.9400 Y10.1600 
G01 Z-1.900000
G01 Z2.000000
(G00 Z2.000000)
G00 X-27.9400 Y12.7000 
G01 Z-1.900000
G01 Z2.000000
(G00 Z2.000000)
G00 X-27.9400 Y15.2400 
G01 Z-1.900000
G01 Z2.000000
(G00 Z2.000000)
G00 X-27.9400 Y17.7800 
G01 Z-1.900000
G01 Z2.000000
(G00 Z2.000000)
G00 X-27.9400 Y20.3200 
G01 Z-1.900000
G01 Z2.000000
(G00 Z2.000000)
G00 X-27.9400 Y22.8600 
G01 Z-1.900000
G01 Z2.000000
(G00 Z2.000000)
G00 X-27.9400 Y2.5400 
G01 Z-1.900000
G01 Z2.000000
(G00 Z2.000000)
G00 X-27.9400 Y25.4000 
G01 Z-1.900000
G01 Z2.000000
(G00 Z2.000000)
G00 X-27.9400 Y27.9400 
G01 Z-1.900000
G01 Z2.000000
(G00 Z2.000000)
G00 X-27.9400 Y30.4800 
G01 Z-1.900000
G01 Z2.000000
T01 
G00 Z20.4000 
M05
M02
