(.../Documents/EAGLE/ulps/pcb-gcode.ulp)
(Copyright 2005 - 2012 by John Johnson)
(See readme.txt for licensing terms.)
(This file generated from the board:)
(.../projects/ESP32_HUB75/ESP_Hub.brd)
(Current profile is .../EAGLE/ulps/profiles/generic.pp  )
(This file generated 18.06.22 11:07)
(Settings from pcb-machine.h)
(  Tool Size)
(0.1500 )
(Z Axis Settings)
(  High     Up        Down     Drill)
(20.4000 	2.0000 	-0.1500 	-1.9000 )
(spindle on time = 3.0000)
(milling depth = -1.3000)
(text depth = -0.1000)
(tool change at 0.0000 0.0000 20.4000 )
(feed rate xy = F208.00 )
(feed rate z  = F100.00 )
(Settings from pcb-defaults.h)
(isolate min = 0.1000)
(isolate max = 0.5000)
(isolate step = 0.1000)
(Generated bottom outlines, bottom drill, )
(Unit of measure: mm)
(Metric Mode)
G21
(Absolute Coordinates)
G90
G00 X0.0000 Y0.0000 
M03
G04 P3.000000
G00 Z2.0000 
G00 X-19.2250 Y44.4152 
G01 Z-0.1500 F100.00 
G01 X-19.2250 Y47.0248 F208.00 
G01 X-19.1984 Y47.0891 
G01 X-19.1491 Y47.1384 
G01 X-19.0848 Y47.1650 
G01 X-17.7452 Y47.1650 
G01 X-17.6809 Y47.1384 
G01 X-17.6316 Y47.0891 
G01 X-17.6050 Y47.0248 
G01 X-17.6050 Y44.4152 
G01 X-17.6316 Y44.3509 
G01 X-17.6809 Y44.3016 
G01 X-17.7452 Y44.2750 
G01 X-19.0848 Y44.2750 
G01 X-19.1491 Y44.3016 
G01 X-19.1984 Y44.3509 
G01 X-19.2250 Y44.4152 
G00 Z2.0000 
G00 X-10.3350 Y36.7952 
G01 Z-0.1500 F100.00 
G01 X-10.3350 Y38.1348 F208.00 
G01 X-10.3084 Y38.1991 
G01 X-10.2591 Y38.2484 
G01 X-10.1948 Y38.2750 
G01 X-8.8552 Y38.2750 
G01 X-8.7909 Y38.2484 
G01 X-8.7416 Y38.1991 
G01 X-8.7150 Y38.1348 
G01 X-8.7150 Y36.7952 
G01 X-8.7416 Y36.7309 
G01 X-8.7909 Y36.6816 
G01 X-8.8552 Y36.6550 
G01 X-10.1948 Y36.6550 
G01 X-10.2591 Y36.6816 
G01 X-10.3084 Y36.7309 
G01 X-10.3350 Y36.7952 
G00 Z2.0000 
G00 X-15.6281 Y31.4170 
G01 Z-0.1500 F100.00 
G01 X-14.8519 Y31.4170 F208.00 
G01 X-14.3030 Y30.8681 
G01 X-14.3030 Y30.0919 
G01 X-14.8519 Y29.5430 
G01 X-15.6281 Y29.5430 
G01 X-15.9837 Y29.8986 
G01 X-16.5673 Y29.8986 
G01 X-16.6175 Y29.9086 
G01 X-24.2166 Y29.9086 
G01 X-24.2248 Y29.8924 
G01 X-24.3303 Y29.7472 
G01 X-24.4572 Y29.6203 
G01 X-24.6024 Y29.5148 
G01 X-24.7623 Y29.4333 
G01 X-24.9330 Y29.3779 
G01 X-25.1103 Y29.3498 
G01 X-25.2897 Y29.3498 
G01 X-25.4670 Y29.3779 
G01 X-25.6377 Y29.4333 
G01 X-25.7976 Y29.5148 
G01 X-25.9428 Y29.6203 
G01 X-26.0697 Y29.7472 
G01 X-26.1752 Y29.8924 
G01 X-26.1834 Y29.9086 
G01 X-26.4329 Y29.9086 
G01 X-26.4502 Y29.8827 
G01 X-26.5807 Y29.7522 
G01 X-26.7342 Y29.6496 
G01 X-26.9047 Y29.5790 
G01 X-27.0857 Y29.5430 
G01 X-28.7943 Y29.5430 
G01 X-28.9753 Y29.5790 
G01 X-29.1458 Y29.6496 
G01 X-29.2993 Y29.7522 
G01 X-29.4298 Y29.8827 
G01 X-29.5324 Y30.0362 
G01 X-29.6030 Y30.2067 
G01 X-29.6390 Y30.3877 
G01 X-29.6390 Y30.5723 
G01 X-29.6030 Y30.7533 
G01 X-29.5324 Y30.9238 
G01 X-29.4298 Y31.0773 
G01 X-29.2993 Y31.2078 
G01 X-29.1458 Y31.3104 
G01 X-28.9753 Y31.3810 
G01 X-28.7943 Y31.4170 
G01 X-27.0857 Y31.4170 
G01 X-26.9047 Y31.3810 
G01 X-26.7342 Y31.3104 
G01 X-26.5807 Y31.2078 
G01 X-26.4502 Y31.0773 
G01 X-26.4462 Y31.0714 
G01 X-26.1834 Y31.0714 
G01 X-26.1752 Y31.0876 
G01 X-26.0697 Y31.2328 
G01 X-25.9428 Y31.3597 
G01 X-25.7976 Y31.4652 
G01 X-25.6377 Y31.5467 
G01 X-25.4670 Y31.6021 
G01 X-25.2897 Y31.6302 
G01 X-25.1103 Y31.6302 
G01 X-24.9330 Y31.6021 
G01 X-24.7623 Y31.5467 
G01 X-24.6024 Y31.4652 
G01 X-24.4572 Y31.3597 
G01 X-24.3303 Y31.2328 
G01 X-24.2248 Y31.0876 
G01 X-24.2166 Y31.0714 
G01 X-16.4627 Y31.0714 
G01 X-16.4125 Y31.0614 
G01 X-15.9837 Y31.0614 
G01 X-15.6281 Y31.4170 
G00 Z2.0000 
G00 X-13.6370 Y27.5519 
G01 Z-0.1500 F100.00 
G01 X-13.6370 Y28.3281 F208.00 
G01 X-13.0881 Y28.8770 
G01 X-12.3119 Y28.8770 
G01 X-11.9563 Y28.5214 
G01 X-8.8327 Y28.5214 
G01 X-8.7204 Y28.4991 
G01 X-8.6146 Y28.4552 
G01 X-8.5194 Y28.3916 
G01 X-8.4384 Y28.3106 
G01 X-6.1092 Y25.9814 
G01 X-5.1775 Y25.9814 
G01 X-5.1273 Y25.9914 
G01 X-3.5334 Y25.9914 
G01 X-3.5252 Y26.0076 
G01 X-3.4197 Y26.1528 
G01 X-3.2928 Y26.2797 
G01 X-3.1476 Y26.3852 
G01 X-2.9877 Y26.4667 
G01 X-2.8170 Y26.5221 
G01 X-2.6397 Y26.5502 
G01 X-2.4603 Y26.5502 
G01 X-2.2830 Y26.5221 
G01 X-2.1123 Y26.4667 
G01 X-1.9524 Y26.3852 
G01 X-1.8072 Y26.2797 
G01 X-1.6803 Y26.1528 
G01 X-1.5748 Y26.0076 
G01 X-1.4933 Y25.8477 
G01 X-1.4379 Y25.6770 
G01 X-1.4098 Y25.4997 
G01 X-1.4098 Y25.3203 
G01 X-1.4379 Y25.1430 
G01 X-1.4933 Y24.9723 
G01 X-1.5748 Y24.8124 
G01 X-1.6803 Y24.6672 
G01 X-1.8072 Y24.5403 
G01 X-1.9524 Y24.4348 
G01 X-2.1123 Y24.3533 
G01 X-2.2830 Y24.2979 
G01 X-2.4603 Y24.2698 
G01 X-2.6397 Y24.2698 
G01 X-2.8170 Y24.2979 
G01 X-2.9877 Y24.3533 
G01 X-3.1476 Y24.4348 
G01 X-3.2928 Y24.5403 
G01 X-3.4197 Y24.6672 
G01 X-3.5252 Y24.8124 
G01 X-3.5334 Y24.8286 
G01 X-4.9725 Y24.8286 
G01 X-5.0227 Y24.8186 
G01 X-6.4073 Y24.8186 
G01 X-6.5196 Y24.8409 
G01 X-6.6254 Y24.8848 
G01 X-6.7206 Y24.9484 
G01 X-9.1308 Y27.3586 
G01 X-11.9563 Y27.3586 
G01 X-12.3119 Y27.0030 
G01 X-13.0881 Y27.0030 
G01 X-13.6370 Y27.5519 
G00 Z2.0000 
G00 X-16.1770 Y27.5519 
G01 Z-0.1500 F100.00 
G01 X-16.1770 Y28.3281 F208.00 
G01 X-15.6281 Y28.8770 
G01 X-14.8519 Y28.8770 
G01 X-14.3030 Y28.3281 
G01 X-14.3030 Y27.5519 
G01 X-14.8519 Y27.0030 
G01 X-15.6281 Y27.0030 
G01 X-16.1770 Y27.5519 
G00 Z2.0000 
G00 X-13.6370 Y25.0119 
G01 Z-0.1500 F100.00 
G01 X-13.6370 Y25.7881 F208.00 
G01 X-13.0881 Y26.3370 
G01 X-12.3119 Y26.3370 
G01 X-11.9563 Y25.9814 
G01 X-8.8327 Y25.9814 
G01 X-8.7204 Y25.9591 
G01 X-8.6146 Y25.9152 
G01 X-8.5194 Y25.8516 
G01 X-8.4384 Y25.7706 
G01 X-6.1192 Y23.4514 
G01 X-3.5334 Y23.4514 
G01 X-3.5252 Y23.4676 
G01 X-3.4197 Y23.6128 
G01 X-3.2928 Y23.7397 
G01 X-3.1476 Y23.8452 
G01 X-2.9877 Y23.9267 
G01 X-2.8170 Y23.9821 
G01 X-2.6397 Y24.0102 
G01 X-2.4603 Y24.0102 
G01 X-2.2830 Y23.9821 
G01 X-2.1123 Y23.9267 
G01 X-1.9524 Y23.8452 
G01 X-1.8072 Y23.7397 
G01 X-1.6803 Y23.6128 
G01 X-1.5748 Y23.4676 
G01 X-1.4933 Y23.3077 
G01 X-1.4379 Y23.1370 
G01 X-1.4098 Y22.9597 
G01 X-1.4098 Y22.7803 
G01 X-1.4379 Y22.6030 
G01 X-1.4933 Y22.4323 
G01 X-1.5748 Y22.2724 
G01 X-1.6803 Y22.1272 
G01 X-1.8072 Y22.0003 
G01 X-1.9524 Y21.8948 
G01 X-2.1123 Y21.8133 
G01 X-2.2830 Y21.7579 
G01 X-2.4603 Y21.7298 
G01 X-2.6397 Y21.7298 
G01 X-2.8170 Y21.7579 
G01 X-2.9877 Y21.8133 
G01 X-3.1476 Y21.8948 
G01 X-3.2928 Y22.0003 
G01 X-3.4197 Y22.1272 
G01 X-3.5252 Y22.2724 
G01 X-3.5334 Y22.2886 
G01 X-6.2425 Y22.2886 
G01 X-6.2927 Y22.2786 
G01 X-6.4073 Y22.2786 
G01 X-6.5196 Y22.3009 
G01 X-6.6254 Y22.3448 
G01 X-6.7206 Y22.4084 
G01 X-9.1308 Y24.8186 
G01 X-11.9563 Y24.8186 
G01 X-12.3119 Y24.4630 
G01 X-13.0881 Y24.4630 
G01 X-13.6370 Y25.0119 
G00 Z2.0000 
G00 X-15.6281 Y26.3370 
G01 Z-0.1500 F100.00 
G01 X-14.8519 Y26.3370 F208.00 
G01 X-14.3030 Y25.7881 
G01 X-14.3030 Y25.0119 
G01 X-14.8519 Y24.4630 
G01 X-15.6281 Y24.4630 
G01 X-15.9837 Y24.8186 
G01 X-19.1073 Y24.8186 
G01 X-19.2196 Y24.8409 
G01 X-19.3254 Y24.8848 
G01 X-19.4206 Y24.9484 
G01 X-21.8408 Y27.3686 
G01 X-24.2166 Y27.3686 
G01 X-24.2248 Y27.3524 
G01 X-24.3303 Y27.2072 
G01 X-24.4572 Y27.0803 
G01 X-24.6024 Y26.9748 
G01 X-24.7623 Y26.8933 
G01 X-24.9330 Y26.8379 
G01 X-25.1103 Y26.8098 
G01 X-25.2897 Y26.8098 
G01 X-25.4670 Y26.8379 
G01 X-25.6377 Y26.8933 
G01 X-25.7976 Y26.9748 
G01 X-25.9428 Y27.0803 
G01 X-26.0697 Y27.2072 
G01 X-26.1752 Y27.3524 
G01 X-26.1834 Y27.3686 
G01 X-26.4329 Y27.3686 
G01 X-26.4502 Y27.3427 
G01 X-26.5807 Y27.2122 
G01 X-26.7342 Y27.1096 
G01 X-26.9047 Y27.0390 
G01 X-27.0857 Y27.0030 
G01 X-28.7943 Y27.0030 
G01 X-28.9753 Y27.0390 
G01 X-29.1458 Y27.1096 
G01 X-29.2993 Y27.2122 
G01 X-29.4298 Y27.3427 
G01 X-29.5324 Y27.4962 
G01 X-29.6030 Y27.6667 
G01 X-29.6390 Y27.8477 
G01 X-29.6390 Y28.0323 
G01 X-29.6030 Y28.2133 
G01 X-29.5324 Y28.3838 
G01 X-29.4298 Y28.5373 
G01 X-29.2993 Y28.6678 
G01 X-29.1458 Y28.7704 
G01 X-28.9753 Y28.8410 
G01 X-28.7943 Y28.8770 
G01 X-27.0857 Y28.8770 
G01 X-26.9047 Y28.8410 
G01 X-26.7342 Y28.7704 
G01 X-26.5807 Y28.6678 
G01 X-26.4502 Y28.5373 
G01 X-26.4462 Y28.5314 
G01 X-26.1834 Y28.5314 
G01 X-26.1752 Y28.5476 
G01 X-26.0697 Y28.6928 
G01 X-25.9428 Y28.8197 
G01 X-25.7976 Y28.9252 
G01 X-25.6377 Y29.0067 
G01 X-25.4670 Y29.0621 
G01 X-25.2897 Y29.0902 
G01 X-25.1103 Y29.0902 
G01 X-24.9330 Y29.0621 
G01 X-24.7623 Y29.0067 
G01 X-24.6024 Y28.9252 
G01 X-24.4572 Y28.8197 
G01 X-24.3303 Y28.6928 
G01 X-24.2248 Y28.5476 
G01 X-24.2166 Y28.5314 
G01 X-21.5427 Y28.5314 
G01 X-21.4304 Y28.5091 
G01 X-21.3246 Y28.4652 
G01 X-21.2294 Y28.4016 
G01 X-21.1484 Y28.3206 
G01 X-18.8092 Y25.9814 
G01 X-15.9837 Y25.9814 
G01 X-15.6281 Y26.3370 
G00 Z2.0000 
G00 X-13.6370 Y22.4719 
G01 Z-0.1500 F100.00 
G01 X-13.6370 Y23.2481 F208.00 
G01 X-13.0881 Y23.7970 
G01 X-12.3119 Y23.7970 
G01 X-11.9563 Y23.4414 
G01 X-10.1027 Y23.4414 
G01 X-9.9904 Y23.4191 
G01 X-9.8846 Y23.3752 
G01 X-9.7894 Y23.3116 
G01 X-9.7084 Y23.2306 
G01 X-7.3892 Y20.9114 
G01 X-3.5334 Y20.9114 
G01 X-3.5252 Y20.9276 
G01 X-3.4197 Y21.0728 
G01 X-3.2928 Y21.1997 
G01 X-3.1476 Y21.3052 
G01 X-2.9877 Y21.3867 
G01 X-2.8170 Y21.4421 
G01 X-2.6397 Y21.4702 
G01 X-2.4603 Y21.4702 
G01 X-2.2830 Y21.4421 
G01 X-2.1123 Y21.3867 
G01 X-1.9524 Y21.3052 
G01 X-1.8072 Y21.1997 
G01 X-1.6803 Y21.0728 
G01 X-1.5748 Y20.9276 
G01 X-1.4933 Y20.7677 
G01 X-1.4379 Y20.5970 
G01 X-1.4098 Y20.4197 
G01 X-1.4098 Y20.2403 
G01 X-1.4379 Y20.0630 
G01 X-1.4933 Y19.8923 
G01 X-1.5748 Y19.7324 
G01 X-1.6803 Y19.5872 
G01 X-1.8072 Y19.4603 
G01 X-1.9524 Y19.3548 
G01 X-2.1123 Y19.2733 
G01 X-2.2830 Y19.2179 
G01 X-2.4603 Y19.1898 
G01 X-2.6397 Y19.1898 
G01 X-2.8170 Y19.2179 
G01 X-2.9877 Y19.2733 
G01 X-3.1476 Y19.3548 
G01 X-3.2928 Y19.4603 
G01 X-3.4197 Y19.5872 
G01 X-3.5252 Y19.7324 
G01 X-3.5334 Y19.7486 
G01 X-7.5125 Y19.7486 
G01 X-7.5627 Y19.7386 
G01 X-7.6773 Y19.7386 
G01 X-7.7896 Y19.7609 
G01 X-7.8954 Y19.8048 
G01 X-7.9906 Y19.8684 
G01 X-10.4008 Y22.2786 
G01 X-11.9563 Y22.2786 
G01 X-12.3119 Y21.9230 
G01 X-13.0881 Y21.9230 
G01 X-13.6370 Y22.4719 
G00 Z2.0000 
G00 X-15.6281 Y23.7970 
G01 Z-0.1500 F100.00 
G01 X-14.8519 Y23.7970 F208.00 
G01 X-14.3030 Y23.2481 
G01 X-14.3030 Y22.4719 
G01 X-14.8519 Y21.9230 
G01 X-15.6281 Y21.9230 
G01 X-15.9837 Y22.2786 
G01 X-24.2217 Y22.2786 
G01 X-24.2248 Y22.2724 
G01 X-24.3303 Y22.1272 
G01 X-24.4572 Y22.0003 
G01 X-24.6024 Y21.8948 
G01 X-24.7623 Y21.8133 
G01 X-24.9330 Y21.7579 
G01 X-25.1103 Y21.7298 
G01 X-25.2897 Y21.7298 
G01 X-25.4670 Y21.7579 
G01 X-25.6377 Y21.8133 
G01 X-25.7976 Y21.8948 
G01 X-25.9428 Y22.0003 
G01 X-26.0697 Y22.1272 
G01 X-26.1752 Y22.2724 
G01 X-26.1834 Y22.2886 
G01 X-26.4329 Y22.2886 
G01 X-26.4502 Y22.2627 
G01 X-26.5807 Y22.1322 
G01 X-26.7342 Y22.0296 
G01 X-26.9047 Y21.9590 
G01 X-27.0857 Y21.9230 
G01 X-28.7943 Y21.9230 
G01 X-28.9753 Y21.9590 
G01 X-29.1458 Y22.0296 
G01 X-29.2993 Y22.1322 
G01 X-29.4298 Y22.2627 
G01 X-29.5324 Y22.4162 
G01 X-29.6030 Y22.5867 
G01 X-29.6390 Y22.7677 
G01 X-29.6390 Y22.9523 
G01 X-29.6030 Y23.1333 
G01 X-29.5324 Y23.3038 
G01 X-29.4298 Y23.4573 
G01 X-29.2993 Y23.5878 
G01 X-29.1458 Y23.6904 
G01 X-28.9753 Y23.7610 
G01 X-28.7943 Y23.7970 
G01 X-27.0857 Y23.7970 
G01 X-26.9047 Y23.7610 
G01 X-26.7342 Y23.6904 
G01 X-26.5807 Y23.5878 
G01 X-26.4502 Y23.4573 
G01 X-26.4462 Y23.4514 
G01 X-26.1834 Y23.4514 
G01 X-26.1752 Y23.4676 
G01 X-26.0697 Y23.6128 
G01 X-25.9428 Y23.7397 
G01 X-25.7976 Y23.8452 
G01 X-25.6377 Y23.9267 
G01 X-25.4670 Y23.9821 
G01 X-25.2897 Y24.0102 
G01 X-25.1103 Y24.0102 
G01 X-24.9330 Y23.9821 
G01 X-24.7623 Y23.9267 
G01 X-24.6024 Y23.8452 
G01 X-24.4572 Y23.7397 
G01 X-24.3303 Y23.6128 
G01 X-24.2248 Y23.4676 
G01 X-24.2115 Y23.4414 
G01 X-22.9775 Y23.4414 
G01 X-22.9273 Y23.4514 
G01 X-22.8127 Y23.4514 
G01 X-22.7625 Y23.4414 
G01 X-15.9837 Y23.4414 
G01 X-15.6281 Y23.7970 
G00 Z2.0000 
G00 X-13.6370 Y19.9319 
G01 Z-0.1500 F100.00 
G01 X-13.6370 Y20.7081 F208.00 
G01 X-13.0881 Y21.2570 
G01 X-12.3119 Y21.2570 
G01 X-11.9563 Y20.9014 
G01 X-11.3727 Y20.9014 
G01 X-11.2604 Y20.8791 
G01 X-11.1546 Y20.8352 
G01 X-11.0594 Y20.7716 
G01 X-10.9784 Y20.6906 
G01 X-8.6492 Y18.3614 
G01 X-7.7175 Y18.3614 
G01 X-7.6673 Y18.3714 
G01 X-3.5334 Y18.3714 
G01 X-3.5252 Y18.3876 
G01 X-3.4197 Y18.5328 
G01 X-3.2928 Y18.6597 
G01 X-3.1476 Y18.7652 
G01 X-2.9877 Y18.8467 
G01 X-2.8170 Y18.9021 
G01 X-2.6397 Y18.9302 
G01 X-2.4603 Y18.9302 
G01 X-2.2830 Y18.9021 
G01 X-2.1123 Y18.8467 
G01 X-1.9524 Y18.7652 
G01 X-1.8072 Y18.6597 
G01 X-1.6803 Y18.5328 
G01 X-1.5748 Y18.3876 
G01 X-1.4933 Y18.2277 
G01 X-1.4379 Y18.0570 
G01 X-1.4098 Y17.8797 
G01 X-1.4098 Y17.7003 
G01 X-1.4379 Y17.5230 
G01 X-1.4933 Y17.3523 
G01 X-1.5748 Y17.1924 
G01 X-1.6803 Y17.0472 
G01 X-1.8072 Y16.9203 
G01 X-1.9524 Y16.8148 
G01 X-2.1123 Y16.7333 
G01 X-2.2830 Y16.6779 
G01 X-2.4603 Y16.6498 
G01 X-2.6397 Y16.6498 
G01 X-2.8170 Y16.6779 
G01 X-2.9877 Y16.7333 
G01 X-3.1476 Y16.8148 
G01 X-3.2928 Y16.9203 
G01 X-3.4197 Y17.0472 
G01 X-3.5252 Y17.1924 
G01 X-3.5334 Y17.2086 
G01 X-7.5125 Y17.2086 
G01 X-7.5627 Y17.1986 
G01 X-8.9473 Y17.1986 
G01 X-9.0596 Y17.2209 
G01 X-9.1654 Y17.2648 
G01 X-9.2606 Y17.3284 
G01 X-11.6708 Y19.7386 
G01 X-11.9563 Y19.7386 
G01 X-12.3119 Y19.3830 
G01 X-13.0881 Y19.3830 
G01 X-13.6370 Y19.9319 
G00 Z2.0000 
G00 X-15.6281 Y21.2570 
G01 Z-0.1500 F100.00 
G01 X-14.8519 Y21.2570 F208.00 
G01 X-14.3030 Y20.7081 
G01 X-14.3030 Y19.9319 
G01 X-14.8519 Y19.3830 
G01 X-15.6281 Y19.3830 
G01 X-15.9837 Y19.7386 
G01 X-24.2217 Y19.7386 
G01 X-24.2248 Y19.7324 
G01 X-24.3303 Y19.5872 
G01 X-24.4572 Y19.4603 
G01 X-24.6024 Y19.3548 
G01 X-24.7623 Y19.2733 
G01 X-24.9330 Y19.2179 
G01 X-25.1103 Y19.1898 
G01 X-25.2897 Y19.1898 
G01 X-25.4670 Y19.2179 
G01 X-25.6377 Y19.2733 
G01 X-25.7976 Y19.3548 
G01 X-25.9428 Y19.4603 
G01 X-26.0697 Y19.5872 
G01 X-26.1752 Y19.7324 
G01 X-26.1834 Y19.7486 
G01 X-26.4329 Y19.7486 
G01 X-26.4502 Y19.7227 
G01 X-26.5807 Y19.5922 
G01 X-26.7342 Y19.4896 
G01 X-26.9047 Y19.4190 
G01 X-27.0857 Y19.3830 
G01 X-28.7943 Y19.3830 
G01 X-28.9753 Y19.4190 
G01 X-29.1458 Y19.4896 
G01 X-29.2993 Y19.5922 
G01 X-29.4298 Y19.7227 
G01 X-29.5324 Y19.8762 
G01 X-29.6030 Y20.0467 
G01 X-29.6390 Y20.2277 
G01 X-29.6390 Y20.4123 
G01 X-29.6030 Y20.5933 
G01 X-29.5324 Y20.7638 
G01 X-29.4298 Y20.9173 
G01 X-29.2993 Y21.0478 
G01 X-29.1458 Y21.1504 
G01 X-28.9753 Y21.2210 
G01 X-28.7943 Y21.2570 
G01 X-27.0857 Y21.2570 
G01 X-26.9047 Y21.2210 
G01 X-26.7342 Y21.1504 
G01 X-26.5807 Y21.0478 
G01 X-26.4502 Y20.9173 
G01 X-26.4462 Y20.9114 
G01 X-26.1834 Y20.9114 
G01 X-26.1752 Y20.9276 
G01 X-26.0697 Y21.0728 
G01 X-25.9428 Y21.1997 
G01 X-25.7976 Y21.3052 
G01 X-25.6377 Y21.3867 
G01 X-25.4670 Y21.4421 
G01 X-25.2897 Y21.4702 
G01 X-25.1103 Y21.4702 
G01 X-24.9330 Y21.4421 
G01 X-24.7623 Y21.3867 
G01 X-24.6024 Y21.3052 
G01 X-24.4572 Y21.1997 
G01 X-24.3303 Y21.0728 
G01 X-24.2248 Y20.9276 
G01 X-24.2115 Y20.9014 
G01 X-21.7075 Y20.9014 
G01 X-21.6573 Y20.9114 
G01 X-21.5427 Y20.9114 
G01 X-21.4925 Y20.9014 
G01 X-15.9837 Y20.9014 
G01 X-15.6281 Y21.2570 
G00 Z2.0000 
G00 X-13.6370 Y17.3919 
G01 Z-0.1500 F100.00 
G01 X-13.6370 Y18.1681 F208.00 
G01 X-13.0881 Y18.7170 
G01 X-12.3119 Y18.7170 
G01 X-11.7630 Y18.1681 
G01 X-11.7630 Y17.3919 
G01 X-12.1186 Y17.0363 
G01 X-12.1186 Y16.7508 
G01 X-8.6592 Y13.2914 
G01 X-3.5334 Y13.2914 
G01 X-3.5252 Y13.3076 
G01 X-3.4197 Y13.4528 
G01 X-3.2928 Y13.5797 
G01 X-3.1476 Y13.6852 
G01 X-2.9877 Y13.7667 
G01 X-2.8170 Y13.8221 
G01 X-2.6397 Y13.8502 
G01 X-2.4603 Y13.8502 
G01 X-2.2830 Y13.8221 
G01 X-2.1123 Y13.7667 
G01 X-1.9524 Y13.6852 
G01 X-1.8072 Y13.5797 
G01 X-1.6803 Y13.4528 
G01 X-1.5748 Y13.3076 
G01 X-1.4933 Y13.1477 
G01 X-1.4379 Y12.9770 
G01 X-1.4098 Y12.7997 
G01 X-1.4098 Y12.6203 
G01 X-1.4379 Y12.4430 
G01 X-1.4933 Y12.2723 
G01 X-1.5748 Y12.1124 
G01 X-1.6803 Y11.9672 
G01 X-1.8072 Y11.8403 
G01 X-1.9524 Y11.7348 
G01 X-2.1123 Y11.6533 
G01 X-2.2830 Y11.5979 
G01 X-2.4603 Y11.5698 
G01 X-2.6397 Y11.5698 
G01 X-2.8170 Y11.5979 
G01 X-2.9877 Y11.6533 
G01 X-3.1476 Y11.7348 
G01 X-3.2928 Y11.8403 
G01 X-3.4197 Y11.9672 
G01 X-3.5252 Y12.1124 
G01 X-3.5334 Y12.1286 
G01 X-8.9573 Y12.1286 
G01 X-9.0696 Y12.1509 
G01 X-9.1754 Y12.1948 
G01 X-9.2706 Y12.2584 
G01 X-13.1516 Y16.1394 
G01 X-13.2152 Y16.2346 
G01 X-13.2591 Y16.3404 
G01 X-13.2814 Y16.4527 
G01 X-13.2814 Y17.0363 
G01 X-13.6370 Y17.3919 
G00 Z2.0000 
G00 X-16.1770 Y17.3919 
G01 Z-0.1500 F100.00 
G01 X-16.1770 Y18.1681 F208.00 
G01 X-15.6281 Y18.7170 
G01 X-14.8519 Y18.7170 
G01 X-14.3030 Y18.1681 
G01 X-14.3030 Y17.3919 
G01 X-14.8519 Y16.8430 
G01 X-15.6281 Y16.8430 
G01 X-16.1770 Y17.3919 
G00 Z2.0000 
G00 X-3.6902 Y48.1803 
G01 Z-0.1500 F100.00 
G01 X-3.6902 Y48.3597 F208.00 
G01 X-3.6621 Y48.5370 
G01 X-3.6067 Y48.7077 
G01 X-3.5252 Y48.8676 
G01 X-3.4197 Y49.0128 
G01 X-3.2928 Y49.1397 
G01 X-3.1476 Y49.2452 
G01 X-2.9877 Y49.3267 
G01 X-2.8170 Y49.3821 
G01 X-2.6397 Y49.4102 
G01 X-2.4603 Y49.4102 
G01 X-2.2830 Y49.3821 
G01 X-2.1123 Y49.3267 
G01 X-1.9524 Y49.2452 
G01 X-1.8072 Y49.1397 
G01 X-1.6803 Y49.0128 
G01 X-1.5748 Y48.8676 
G01 X-1.4933 Y48.7077 
G01 X-1.4379 Y48.5370 
G01 X-1.4098 Y48.3597 
G01 X-1.4098 Y48.1803 
G01 X-1.4379 Y48.0030 
G01 X-1.4933 Y47.8323 
G01 X-1.5748 Y47.6724 
G01 X-1.6803 Y47.5272 
G01 X-1.8072 Y47.4003 
G01 X-1.9524 Y47.2948 
G01 X-2.1123 Y47.2133 
G01 X-2.2830 Y47.1579 
G01 X-2.4603 Y47.1298 
G01 X-2.6397 Y47.1298 
G01 X-2.8170 Y47.1579 
G01 X-2.9877 Y47.2133 
G01 X-3.1476 Y47.2948 
G01 X-3.2928 Y47.4003 
G01 X-3.4197 Y47.5272 
G01 X-3.5252 Y47.6724 
G01 X-3.6067 Y47.8323 
G01 X-3.6621 Y48.0030 
G01 X-3.6902 Y48.1803 
G00 Z2.0000 
G00 X-3.6902 Y45.6403 
G01 Z-0.1500 F100.00 
G01 X-3.6902 Y45.8197 F208.00 
G01 X-3.6621 Y45.9970 
G01 X-3.6067 Y46.1677 
G01 X-3.5252 Y46.3276 
G01 X-3.4197 Y46.4728 
G01 X-3.2928 Y46.5997 
G01 X-3.1476 Y46.7052 
G01 X-2.9877 Y46.7867 
G01 X-2.8170 Y46.8421 
G01 X-2.6397 Y46.8702 
G01 X-2.4603 Y46.8702 
G01 X-2.2830 Y46.8421 
G01 X-2.1123 Y46.7867 
G01 X-1.9524 Y46.7052 
G01 X-1.8072 Y46.5997 
G01 X-1.6803 Y46.4728 
G01 X-1.5748 Y46.3276 
G01 X-1.4933 Y46.1677 
G01 X-1.4379 Y45.9970 
G01 X-1.4098 Y45.8197 
G01 X-1.4098 Y45.6403 
G01 X-1.4379 Y45.4630 
G01 X-1.4933 Y45.2923 
G01 X-1.5748 Y45.1324 
G01 X-1.6803 Y44.9872 
G01 X-1.8072 Y44.8603 
G01 X-1.9524 Y44.7548 
G01 X-2.1123 Y44.6733 
G01 X-2.2830 Y44.6179 
G01 X-2.4603 Y44.5898 
G01 X-2.6397 Y44.5898 
G01 X-2.8170 Y44.6179 
G01 X-2.9877 Y44.6733 
G01 X-3.1476 Y44.7548 
G01 X-3.2928 Y44.8603 
G01 X-3.4197 Y44.9872 
G01 X-3.5252 Y45.1324 
G01 X-3.6067 Y45.2923 
G01 X-3.6621 Y45.4630 
G01 X-3.6902 Y45.6403 
G00 Z2.0000 
G00 X-3.6902 Y43.1003 
G01 Z-0.1500 F100.00 
G01 X-3.6902 Y43.2797 F208.00 
G01 X-3.6621 Y43.4570 
G01 X-3.6067 Y43.6277 
G01 X-3.5252 Y43.7876 
G01 X-3.4197 Y43.9328 
G01 X-3.2928 Y44.0597 
G01 X-3.1476 Y44.1652 
G01 X-2.9877 Y44.2467 
G01 X-2.8170 Y44.3021 
G01 X-2.6397 Y44.3302 
G01 X-2.4603 Y44.3302 
G01 X-2.2830 Y44.3021 
G01 X-2.1123 Y44.2467 
G01 X-1.9524 Y44.1652 
G01 X-1.8072 Y44.0597 
G01 X-1.6803 Y43.9328 
G01 X-1.5748 Y43.7876 
G01 X-1.4933 Y43.6277 
G01 X-1.4379 Y43.4570 
G01 X-1.4098 Y43.2797 
G01 X-1.4098 Y43.1003 
G01 X-1.4379 Y42.9230 
G01 X-1.4933 Y42.7523 
G01 X-1.5748 Y42.5924 
G01 X-1.6803 Y42.4472 
G01 X-1.8072 Y42.3203 
G01 X-1.9524 Y42.2148 
G01 X-2.1123 Y42.1333 
G01 X-2.2830 Y42.0779 
G01 X-2.4603 Y42.0498 
G01 X-2.6397 Y42.0498 
G01 X-2.8170 Y42.0779 
G01 X-2.9877 Y42.1333 
G01 X-3.1476 Y42.2148 
G01 X-3.2928 Y42.3203 
G01 X-3.4197 Y42.4472 
G01 X-3.5252 Y42.5924 
G01 X-3.6067 Y42.7523 
G01 X-3.6621 Y42.9230 
G01 X-3.6902 Y43.1003 
G00 Z2.0000 
G00 X-3.6902 Y40.5603 
G01 Z-0.1500 F100.00 
G01 X-3.6902 Y40.7397 F208.00 
G01 X-3.6621 Y40.9170 
G01 X-3.6067 Y41.0877 
G01 X-3.5252 Y41.2476 
G01 X-3.4197 Y41.3928 
G01 X-3.2928 Y41.5197 
G01 X-3.1476 Y41.6252 
G01 X-2.9877 Y41.7067 
G01 X-2.8170 Y41.7621 
G01 X-2.6397 Y41.7902 
G01 X-2.4603 Y41.7902 
G01 X-2.2830 Y41.7621 
G01 X-2.1123 Y41.7067 
G01 X-1.9524 Y41.6252 
G01 X-1.8072 Y41.5197 
G01 X-1.6803 Y41.3928 
G01 X-1.5748 Y41.2476 
G01 X-1.4933 Y41.0877 
G01 X-1.4379 Y40.9170 
G01 X-1.4098 Y40.7397 
G01 X-1.4098 Y40.5603 
G01 X-1.4379 Y40.3830 
G01 X-1.4933 Y40.2123 
G01 X-1.5748 Y40.0524 
G01 X-1.6803 Y39.9072 
G01 X-1.8072 Y39.7803 
G01 X-1.9524 Y39.6748 
G01 X-2.1123 Y39.5933 
G01 X-2.2830 Y39.5379 
G01 X-2.4603 Y39.5098 
G01 X-2.6397 Y39.5098 
G01 X-2.8170 Y39.5379 
G01 X-2.9877 Y39.5933 
G01 X-3.1476 Y39.6748 
G01 X-3.2928 Y39.7803 
G01 X-3.4197 Y39.9072 
G01 X-3.5252 Y40.0524 
G01 X-3.6067 Y40.2123 
G01 X-3.6621 Y40.3830 
G01 X-3.6902 Y40.5603 
G00 Z2.0000 
G00 X-3.6902 Y38.0203 
G01 Z-0.1500 F100.00 
G01 X-3.6902 Y38.1997 F208.00 
G01 X-3.6621 Y38.3770 
G01 X-3.6067 Y38.5477 
G01 X-3.5252 Y38.7076 
G01 X-3.4197 Y38.8528 
G01 X-3.2928 Y38.9797 
G01 X-3.1476 Y39.0852 
G01 X-2.9877 Y39.1667 
G01 X-2.8170 Y39.2221 
G01 X-2.6397 Y39.2502 
G01 X-2.4603 Y39.2502 
G01 X-2.2830 Y39.2221 
G01 X-2.1123 Y39.1667 
G01 X-1.9524 Y39.0852 
G01 X-1.8072 Y38.9797 
G01 X-1.6803 Y38.8528 
G01 X-1.5748 Y38.7076 
G01 X-1.4933 Y38.5477 
G01 X-1.4379 Y38.3770 
G01 X-1.4098 Y38.1997 
G01 X-1.4098 Y38.0203 
G01 X-1.4379 Y37.8430 
G01 X-1.4933 Y37.6723 
G01 X-1.5748 Y37.5124 
G01 X-1.6803 Y37.3672 
G01 X-1.8072 Y37.2403 
G01 X-1.9524 Y37.1348 
G01 X-2.1123 Y37.0533 
G01 X-2.2830 Y36.9979 
G01 X-2.4603 Y36.9698 
G01 X-2.6397 Y36.9698 
G01 X-2.8170 Y36.9979 
G01 X-2.9877 Y37.0533 
G01 X-3.1476 Y37.1348 
G01 X-3.2928 Y37.2403 
G01 X-3.4197 Y37.3672 
G01 X-3.5252 Y37.5124 
G01 X-3.6067 Y37.6723 
G01 X-3.6621 Y37.8430 
G01 X-3.6902 Y38.0203 
G00 Z2.0000 
G00 X-3.6902 Y35.4803 
G01 Z-0.1500 F100.00 
G01 X-3.6902 Y35.6597 F208.00 
G01 X-3.6621 Y35.8370 
G01 X-3.6067 Y36.0077 
G01 X-3.5252 Y36.1676 
G01 X-3.4197 Y36.3128 
G01 X-3.2928 Y36.4397 
G01 X-3.1476 Y36.5452 
G01 X-2.9877 Y36.6267 
G01 X-2.8170 Y36.6821 
G01 X-2.6397 Y36.7102 
G01 X-2.4603 Y36.7102 
G01 X-2.2830 Y36.6821 
G01 X-2.1123 Y36.6267 
G01 X-1.9524 Y36.5452 
G01 X-1.8072 Y36.4397 
G01 X-1.6803 Y36.3128 
G01 X-1.5748 Y36.1676 
G01 X-1.4933 Y36.0077 
G01 X-1.4379 Y35.8370 
G01 X-1.4098 Y35.6597 
G01 X-1.4098 Y35.4803 
G01 X-1.4379 Y35.3030 
G01 X-1.4933 Y35.1323 
G01 X-1.5748 Y34.9724 
G01 X-1.6803 Y34.8272 
G01 X-1.8072 Y34.7003 
G01 X-1.9524 Y34.5948 
G01 X-2.1123 Y34.5133 
G01 X-2.2830 Y34.4579 
G01 X-2.4603 Y34.4298 
G01 X-2.6397 Y34.4298 
G01 X-2.8170 Y34.4579 
G01 X-2.9877 Y34.5133 
G01 X-3.1476 Y34.5948 
G01 X-3.2928 Y34.7003 
G01 X-3.4197 Y34.8272 
G01 X-3.5252 Y34.9724 
G01 X-3.6067 Y35.1323 
G01 X-3.6621 Y35.3030 
G01 X-3.6902 Y35.4803 
G00 Z2.0000 
G00 X-3.6902 Y32.9403 
G01 Z-0.1500 F100.00 
G01 X-3.6902 Y33.1197 F208.00 
G01 X-3.6621 Y33.2970 
G01 X-3.6565 Y33.3143 
G01 X-5.3208 Y34.9786 
G01 X-11.9563 Y34.9786 
G01 X-12.3119 Y34.6230 
G01 X-13.0881 Y34.6230 
G01 X-13.6370 Y35.1719 
G01 X-13.6370 Y35.9481 
G01 X-13.0881 Y36.4970 
G01 X-12.3119 Y36.4970 
G01 X-11.9563 Y36.1414 
G01 X-5.0227 Y36.1414 
G01 X-4.9104 Y36.1191 
G01 X-4.8046 Y36.0752 
G01 X-4.7094 Y36.0116 
G01 X-4.6284 Y35.9306 
G01 X-2.8343 Y34.1365 
G01 X-2.8170 Y34.1421 
G01 X-2.6397 Y34.1702 
G01 X-2.4603 Y34.1702 
G01 X-2.2830 Y34.1421 
G01 X-2.1123 Y34.0867 
G01 X-1.9524 Y34.0052 
G01 X-1.8072 Y33.8997 
G01 X-1.6803 Y33.7728 
G01 X-1.5748 Y33.6276 
G01 X-1.4933 Y33.4677 
G01 X-1.4379 Y33.2970 
G01 X-1.4098 Y33.1197 
G01 X-1.4098 Y32.9403 
G01 X-1.4379 Y32.7630 
G01 X-1.4933 Y32.5923 
G01 X-1.5748 Y32.4324 
G01 X-1.6803 Y32.2872 
G01 X-1.8072 Y32.1603 
G01 X-1.9524 Y32.0548 
G01 X-2.1123 Y31.9733 
G01 X-2.2830 Y31.9179 
G01 X-2.4603 Y31.8898 
G01 X-2.6397 Y31.8898 
G01 X-2.8170 Y31.9179 
G01 X-2.9877 Y31.9733 
G01 X-3.1476 Y32.0548 
G01 X-3.2928 Y32.1603 
G01 X-3.4197 Y32.2872 
G01 X-3.5252 Y32.4324 
G01 X-3.6067 Y32.5923 
G01 X-3.6621 Y32.7630 
G01 X-3.6902 Y32.9403 
G00 Z2.0000 
G00 X-3.5252 Y31.0876 
G01 Z-0.1500 F100.00 
G01 X-3.4197 Y31.2328 F208.00 
G01 X-3.2928 Y31.3597 
G01 X-3.1476 Y31.4652 
G01 X-2.9877 Y31.5467 
G01 X-2.8170 Y31.6021 
G01 X-2.6397 Y31.6302 
G01 X-2.4603 Y31.6302 
G01 X-2.2830 Y31.6021 
G01 X-2.1123 Y31.5467 
G01 X-1.9524 Y31.4652 
G01 X-1.8072 Y31.3597 
G01 X-1.6803 Y31.2328 
G01 X-1.5748 Y31.0876 
G01 X-1.4933 Y30.9277 
G01 X-1.4379 Y30.7570 
G01 X-1.4098 Y30.5797 
G01 X-1.4098 Y30.4003 
G01 X-1.4379 Y30.2230 
G01 X-1.4933 Y30.0523 
G01 X-1.5748 Y29.8924 
G01 X-1.6803 Y29.7472 
G01 X-1.8072 Y29.6203 
G01 X-1.9524 Y29.5148 
G01 X-2.1123 Y29.4333 
G01 X-2.2830 Y29.3779 
G01 X-2.4603 Y29.3498 
G01 X-2.6397 Y29.3498 
G01 X-2.8170 Y29.3779 
G01 X-2.9877 Y29.4333 
G01 X-3.1476 Y29.5148 
G01 X-3.2928 Y29.6203 
G01 X-3.4197 Y29.7472 
G01 X-3.5252 Y29.8924 
G01 X-3.5334 Y29.9086 
G01 X-3.7025 Y29.9086 
G01 X-3.7527 Y29.8986 
G01 X-3.8673 Y29.8986 
G01 X-3.9796 Y29.9209 
G01 X-4.0854 Y29.9648 
G01 X-4.1806 Y30.0284 
G01 X-6.5908 Y32.4386 
G01 X-11.9563 Y32.4386 
G01 X-12.3119 Y32.0830 
G01 X-13.0881 Y32.0830 
G01 X-13.6370 Y32.6319 
G01 X-13.6370 Y33.4081 
G01 X-13.0881 Y33.9570 
G01 X-12.3119 Y33.9570 
G01 X-11.9563 Y33.6014 
G01 X-6.2927 Y33.6014 
G01 X-6.1804 Y33.5791 
G01 X-6.0746 Y33.5352 
G01 X-5.9794 Y33.4716 
G01 X-5.8984 Y33.3906 
G01 X-3.5792 Y31.0714 
G01 X-3.5334 Y31.0714 
G01 X-3.5252 Y31.0876 
G00 Z2.0000 
G00 X-3.5252 Y28.5476 
G01 Z-0.1500 F100.00 
G01 X-3.4197 Y28.6928 F208.00 
G01 X-3.2928 Y28.8197 
G01 X-3.1476 Y28.9252 
G01 X-2.9877 Y29.0067 
G01 X-2.8170 Y29.0621 
G01 X-2.6397 Y29.0902 
G01 X-2.4603 Y29.0902 
G01 X-2.2830 Y29.0621 
G01 X-2.1123 Y29.0067 
G01 X-1.9524 Y28.9252 
G01 X-1.8072 Y28.8197 
G01 X-1.6803 Y28.6928 
G01 X-1.5748 Y28.5476 
G01 X-1.4933 Y28.3877 
G01 X-1.4379 Y28.2170 
G01 X-1.4098 Y28.0397 
G01 X-1.4098 Y27.8603 
G01 X-1.4379 Y27.6830 
G01 X-1.4933 Y27.5123 
G01 X-1.5748 Y27.3524 
G01 X-1.6803 Y27.2072 
G01 X-1.8072 Y27.0803 
G01 X-1.9524 Y26.9748 
G01 X-2.1123 Y26.8933 
G01 X-2.2830 Y26.8379 
G01 X-2.4603 Y26.8098 
G01 X-2.6397 Y26.8098 
G01 X-2.8170 Y26.8379 
G01 X-2.9877 Y26.8933 
G01 X-3.1476 Y26.9748 
G01 X-3.2928 Y27.0803 
G01 X-3.4197 Y27.2072 
G01 X-3.5252 Y27.3524 
G01 X-3.5334 Y27.3686 
G01 X-4.9725 Y27.3686 
G01 X-5.0227 Y27.3586 
G01 X-5.1373 Y27.3586 
G01 X-5.2496 Y27.3809 
G01 X-5.3554 Y27.4248 
G01 X-5.4506 Y27.4884 
G01 X-7.8608 Y29.8986 
G01 X-11.9563 Y29.8986 
G01 X-12.3119 Y29.5430 
G01 X-13.0881 Y29.5430 
G01 X-13.6370 Y30.0919 
G01 X-13.6370 Y30.8681 
G01 X-13.0881 Y31.4170 
G01 X-12.3119 Y31.4170 
G01 X-11.9563 Y31.0614 
G01 X-7.5627 Y31.0614 
G01 X-7.4504 Y31.0391 
G01 X-7.3446 Y30.9952 
G01 X-7.2494 Y30.9316 
G01 X-4.8492 Y28.5314 
G01 X-3.5334 Y28.5314 
G01 X-3.5252 Y28.5476 
G00 Z2.0000 
G00 X-3.6902 Y15.1603 
G01 Z-0.1500 F100.00 
G01 X-3.6902 Y15.3397 F208.00 
G01 X-3.6621 Y15.5170 
G01 X-3.6067 Y15.6877 
G01 X-3.5252 Y15.8476 
G01 X-3.4197 Y15.9928 
G01 X-3.2928 Y16.1197 
G01 X-3.1476 Y16.2252 
G01 X-2.9877 Y16.3067 
G01 X-2.8170 Y16.3621 
G01 X-2.6397 Y16.3902 
G01 X-2.4603 Y16.3902 
G01 X-2.2830 Y16.3621 
G01 X-2.1123 Y16.3067 
G01 X-1.9524 Y16.2252 
G01 X-1.8072 Y16.1197 
G01 X-1.6803 Y15.9928 
G01 X-1.5748 Y15.8476 
G01 X-1.4933 Y15.6877 
G01 X-1.4379 Y15.5170 
G01 X-1.4098 Y15.3397 
G01 X-1.4098 Y15.1603 
G01 X-1.4379 Y14.9830 
G01 X-1.4933 Y14.8123 
G01 X-1.5748 Y14.6524 
G01 X-1.6803 Y14.5072 
G01 X-1.8072 Y14.3803 
G01 X-1.9524 Y14.2748 
G01 X-2.1123 Y14.1933 
G01 X-2.2830 Y14.1379 
G01 X-2.4603 Y14.1098 
G01 X-2.6397 Y14.1098 
G01 X-2.8170 Y14.1379 
G01 X-2.9877 Y14.1933 
G01 X-3.1476 Y14.2748 
G01 X-3.2928 Y14.3803 
G01 X-3.4197 Y14.5072 
G01 X-3.5252 Y14.6524 
G01 X-3.6067 Y14.8123 
G01 X-3.6621 Y14.9830 
G01 X-3.6902 Y15.1603 
G00 Z2.0000 
G00 X-3.6902 Y10.0803 
G01 Z-0.1500 F100.00 
G01 X-3.6902 Y10.2597 F208.00 
G01 X-3.6621 Y10.4370 
G01 X-3.6067 Y10.6077 
G01 X-3.5252 Y10.7676 
G01 X-3.4197 Y10.9128 
G01 X-3.2928 Y11.0397 
G01 X-3.1476 Y11.1452 
G01 X-2.9877 Y11.2267 
G01 X-2.8170 Y11.2821 
G01 X-2.6397 Y11.3102 
G01 X-2.4603 Y11.3102 
G01 X-2.2830 Y11.2821 
G01 X-2.1123 Y11.2267 
G01 X-1.9524 Y11.1452 
G01 X-1.8072 Y11.0397 
G01 X-1.6803 Y10.9128 
G01 X-1.5748 Y10.7676 
G01 X-1.4933 Y10.6077 
G01 X-1.4379 Y10.4370 
G01 X-1.4098 Y10.2597 
G01 X-1.4098 Y10.0803 
G01 X-1.4379 Y9.9030 
G01 X-1.4933 Y9.7323 
G01 X-1.5748 Y9.5724 
G01 X-1.6803 Y9.4272 
G01 X-1.8072 Y9.3003 
G01 X-1.9524 Y9.1948 
G01 X-2.1123 Y9.1133 
G01 X-2.2830 Y9.0579 
G01 X-2.4603 Y9.0298 
G01 X-2.6397 Y9.0298 
G01 X-2.8170 Y9.0579 
G01 X-2.9877 Y9.1133 
G01 X-3.1476 Y9.1948 
G01 X-3.2928 Y9.3003 
G01 X-3.4197 Y9.4272 
G01 X-3.5252 Y9.5724 
G01 X-3.6067 Y9.7323 
G01 X-3.6621 Y9.9030 
G01 X-3.6902 Y10.0803 
G00 Z2.0000 
G00 X-3.6902 Y7.5403 
G01 Z-0.1500 F100.00 
G01 X-3.6902 Y7.7197 F208.00 
G01 X-3.6621 Y7.8970 
G01 X-3.6067 Y8.0677 
G01 X-3.5252 Y8.2276 
G01 X-3.4197 Y8.3728 
G01 X-3.2928 Y8.4997 
G01 X-3.1476 Y8.6052 
G01 X-2.9877 Y8.6867 
G01 X-2.8170 Y8.7421 
G01 X-2.6397 Y8.7702 
G01 X-2.4603 Y8.7702 
G01 X-2.2830 Y8.7421 
G01 X-2.1123 Y8.6867 
G01 X-1.9524 Y8.6052 
G01 X-1.8072 Y8.4997 
G01 X-1.6803 Y8.3728 
G01 X-1.5748 Y8.2276 
G01 X-1.4933 Y8.0677 
G01 X-1.4379 Y7.8970 
G01 X-1.4098 Y7.7197 
G01 X-1.4098 Y7.5403 
G01 X-1.4379 Y7.3630 
G01 X-1.4933 Y7.1923 
G01 X-1.5748 Y7.0324 
G01 X-1.6803 Y6.8872 
G01 X-1.8072 Y6.7603 
G01 X-1.9524 Y6.6548 
G01 X-2.1123 Y6.5733 
G01 X-2.2830 Y6.5179 
G01 X-2.4603 Y6.4898 
G01 X-2.6397 Y6.4898 
G01 X-2.8170 Y6.5179 
G01 X-2.9877 Y6.5733 
G01 X-3.1476 Y6.6548 
G01 X-3.2928 Y6.7603 
G01 X-3.4197 Y6.8872 
G01 X-3.5252 Y7.0324 
G01 X-3.6067 Y7.1923 
G01 X-3.6621 Y7.3630 
G01 X-3.6902 Y7.5403 
G00 Z2.0000 
G00 X-3.6902 Y5.0003 
G01 Z-0.1500 F100.00 
G01 X-3.6902 Y5.1797 F208.00 
G01 X-3.6621 Y5.3570 
G01 X-3.6067 Y5.5277 
G01 X-3.5252 Y5.6876 
G01 X-3.4197 Y5.8328 
G01 X-3.2928 Y5.9597 
G01 X-3.1476 Y6.0652 
G01 X-2.9877 Y6.1467 
G01 X-2.8170 Y6.2021 
G01 X-2.6397 Y6.2302 
G01 X-2.4603 Y6.2302 
G01 X-2.2830 Y6.2021 
G01 X-2.1123 Y6.1467 
G01 X-1.9524 Y6.0652 
G01 X-1.8072 Y5.9597 
G01 X-1.6803 Y5.8328 
G01 X-1.5748 Y5.6876 
G01 X-1.4933 Y5.5277 
G01 X-1.4379 Y5.3570 
G01 X-1.4098 Y5.1797 
G01 X-1.4098 Y5.0003 
G01 X-1.4379 Y4.8230 
G01 X-1.4933 Y4.6523 
G01 X-1.5748 Y4.4924 
G01 X-1.6803 Y4.3472 
G01 X-1.8072 Y4.2203 
G01 X-1.9524 Y4.1148 
G01 X-2.1123 Y4.0333 
G01 X-2.2830 Y3.9779 
G01 X-2.4603 Y3.9498 
G01 X-2.6397 Y3.9498 
G01 X-2.8170 Y3.9779 
G01 X-2.9877 Y4.0333 
G01 X-3.1476 Y4.1148 
G01 X-3.2928 Y4.2203 
G01 X-3.4197 Y4.3472 
G01 X-3.5252 Y4.4924 
G01 X-3.6067 Y4.6523 
G01 X-3.6621 Y4.8230 
G01 X-3.6902 Y5.0003 
G00 Z2.0000 
G00 X-3.6902 Y2.4603 
G01 Z-0.1500 F100.00 
G01 X-3.6902 Y2.6397 F208.00 
G01 X-3.6621 Y2.8170 
G01 X-3.6067 Y2.9877 
G01 X-3.5252 Y3.1476 
G01 X-3.4197 Y3.2928 
G01 X-3.2928 Y3.4197 
G01 X-3.1476 Y3.5252 
G01 X-2.9877 Y3.6067 
G01 X-2.8170 Y3.6621 
G01 X-2.6397 Y3.6902 
G01 X-2.4603 Y3.6902 
G01 X-2.2830 Y3.6621 
G01 X-2.1123 Y3.6067 
G01 X-1.9524 Y3.5252 
G01 X-1.8072 Y3.4197 
G01 X-1.6803 Y3.2928 
G01 X-1.5748 Y3.1476 
G01 X-1.4933 Y2.9877 
G01 X-1.4379 Y2.8170 
G01 X-1.4098 Y2.6397 
G01 X-1.4098 Y2.4603 
G01 X-1.4379 Y2.2830 
G01 X-1.4933 Y2.1123 
G01 X-1.5748 Y1.9524 
G01 X-1.6803 Y1.8072 
G01 X-1.8072 Y1.6803 
G01 X-1.9524 Y1.5748 
G01 X-2.1123 Y1.4933 
G01 X-2.2830 Y1.4379 
G01 X-2.4603 Y1.4098 
G01 X-2.6397 Y1.4098 
G01 X-2.8170 Y1.4379 
G01 X-2.9877 Y1.4933 
G01 X-3.1476 Y1.5748 
G01 X-3.2928 Y1.6803 
G01 X-3.4197 Y1.8072 
G01 X-3.5252 Y1.9524 
G01 X-3.6067 Y2.1123 
G01 X-3.6621 Y2.2830 
G01 X-3.6902 Y2.4603 
G00 Z2.0000 
G00 X-26.2567 Y48.7077 
G01 Z-0.1500 F100.00 
G01 X-26.1752 Y48.8676 F208.00 
G01 X-26.0697 Y49.0128 
G01 X-25.9428 Y49.1397 
G01 X-25.7976 Y49.2452 
G01 X-25.6377 Y49.3267 
G01 X-25.4670 Y49.3821 
G01 X-25.2897 Y49.4102 
G01 X-25.1103 Y49.4102 
G01 X-24.9330 Y49.3821 
G01 X-24.7623 Y49.3267 
G01 X-24.6024 Y49.2452 
G01 X-24.4572 Y49.1397 
G01 X-24.3303 Y49.0128 
G01 X-24.2248 Y48.8676 
G01 X-24.1433 Y48.7077 
G01 X-24.0879 Y48.5370 
G01 X-24.0598 Y48.3597 
G01 X-24.0598 Y48.1803 
G01 X-24.0879 Y48.0030 
G01 X-24.1433 Y47.8323 
G01 X-24.2248 Y47.6724 
G01 X-24.3303 Y47.5272 
G01 X-24.4572 Y47.4003 
G01 X-24.6024 Y47.2948 
G01 X-24.7623 Y47.2133 
G01 X-24.9330 Y47.1579 
G01 X-25.1103 Y47.1298 
G01 X-25.2897 Y47.1298 
G01 X-25.4670 Y47.1579 
G01 X-25.6377 Y47.2133 
G01 X-25.7976 Y47.2948 
G01 X-25.9428 Y47.4003 
G01 X-26.0697 Y47.5272 
G01 X-26.1752 Y47.6724 
G01 X-26.2567 Y47.8323 
G01 X-26.2937 Y47.9464 
G01 X-26.3476 Y47.8162 
G01 X-26.4502 Y47.6627 
G01 X-26.5807 Y47.5322 
G01 X-26.7342 Y47.4296 
G01 X-26.9047 Y47.3590 
G01 X-27.0857 Y47.3230 
G01 X-28.7943 Y47.3230 
G01 X-28.9753 Y47.3590 
G01 X-29.1458 Y47.4296 
G01 X-29.2993 Y47.5322 
G01 X-29.4298 Y47.6627 
G01 X-29.5324 Y47.8162 
G01 X-29.6030 Y47.9867 
G01 X-29.6390 Y48.1677 
G01 X-29.6390 Y48.3523 
G01 X-29.6030 Y48.5333 
G01 X-29.5324 Y48.7038 
G01 X-29.4298 Y48.8573 
G01 X-29.2993 Y48.9878 
G01 X-29.1458 Y49.0904 
G01 X-28.9753 Y49.1610 
G01 X-28.7943 Y49.1970 
G01 X-27.0857 Y49.1970 
G01 X-26.9047 Y49.1610 
G01 X-26.7342 Y49.0904 
G01 X-26.5807 Y48.9878 
G01 X-26.4502 Y48.8573 
G01 X-26.3476 Y48.7038 
G01 X-26.2974 Y48.5824 
G01 X-26.2567 Y48.7077 
G00 Z2.0000 
G00 X-26.1752 Y46.3276 
G01 Z-0.1500 F100.00 
G01 X-26.0697 Y46.4728 F208.00 
G01 X-25.9428 Y46.5997 
G01 X-25.7976 Y46.7052 
G01 X-25.6377 Y46.7867 
G01 X-25.4670 Y46.8421 
G01 X-25.2897 Y46.8702 
G01 X-25.1103 Y46.8702 
G01 X-24.9330 Y46.8421 
G01 X-24.7623 Y46.7867 
G01 X-24.6024 Y46.7052 
G01 X-24.4572 Y46.5997 
G01 X-24.3303 Y46.4728 
G01 X-24.2248 Y46.3276 
G01 X-24.2166 Y46.3114 
G01 X-24.0827 Y46.3114 
G01 X-23.9704 Y46.2891 
G01 X-23.8646 Y46.2452 
G01 X-23.7694 Y46.1816 
G01 X-23.6884 Y46.1006 
G01 X-21.1384 Y43.5506 
G01 X-21.0748 Y43.4554 
G01 X-21.0309 Y43.3496 
G01 X-21.0086 Y43.2373 
G01 X-21.0086 Y37.0708 
G01 X-20.0792 Y36.1414 
G01 X-15.9837 Y36.1414 
G01 X-15.6281 Y36.4970 
G01 X-14.8519 Y36.4970 
G01 X-14.3030 Y35.9481 
G01 X-14.3030 Y35.1719 
G01 X-14.8519 Y34.6230 
G01 X-15.6281 Y34.6230 
G01 X-15.9837 Y34.9786 
G01 X-20.3773 Y34.9786 
G01 X-20.4896 Y35.0009 
G01 X-20.5954 Y35.0448 
G01 X-20.6906 Y35.1084 
G01 X-20.7716 Y35.1894 
G01 X-21.9606 Y36.3784 
G01 X-22.0416 Y36.4594 
G01 X-22.1052 Y36.5546 
G01 X-22.1491 Y36.6604 
G01 X-22.1714 Y36.7727 
G01 X-22.1714 Y42.9392 
G01 X-24.2836 Y45.0514 
G01 X-24.3303 Y44.9872 
G01 X-24.4572 Y44.8603 
G01 X-24.6024 Y44.7548 
G01 X-24.7623 Y44.6733 
G01 X-24.9330 Y44.6179 
G01 X-25.1103 Y44.5898 
G01 X-25.2897 Y44.5898 
G01 X-25.4670 Y44.6179 
G01 X-25.6377 Y44.6733 
G01 X-25.7976 Y44.7548 
G01 X-25.9428 Y44.8603 
G01 X-26.0697 Y44.9872 
G01 X-26.1752 Y45.1324 
G01 X-26.1834 Y45.1486 
G01 X-26.4329 Y45.1486 
G01 X-26.4502 Y45.1227 
G01 X-26.5807 Y44.9922 
G01 X-26.7342 Y44.8896 
G01 X-26.9047 Y44.8190 
G01 X-27.0857 Y44.7830 
G01 X-28.7943 Y44.7830 
G01 X-28.9753 Y44.8190 
G01 X-29.1458 Y44.8896 
G01 X-29.2993 Y44.9922 
G01 X-29.4298 Y45.1227 
G01 X-29.5324 Y45.2762 
G01 X-29.6030 Y45.4467 
G01 X-29.6390 Y45.6277 
G01 X-29.6390 Y45.8123 
G01 X-29.6030 Y45.9933 
G01 X-29.5324 Y46.1638 
G01 X-29.4298 Y46.3173 
G01 X-29.2993 Y46.4478 
G01 X-29.1458 Y46.5504 
G01 X-28.9753 Y46.6210 
G01 X-28.7943 Y46.6570 
G01 X-27.0857 Y46.6570 
G01 X-26.9047 Y46.6210 
G01 X-26.7342 Y46.5504 
G01 X-26.5807 Y46.4478 
G01 X-26.4502 Y46.3173 
G01 X-26.4462 Y46.3114 
G01 X-26.1834 Y46.3114 
G01 X-26.1752 Y46.3276 
G00 Z2.0000 
G00 X-26.2567 Y43.6277 
G01 Z-0.1500 F100.00 
G01 X-26.1752 Y43.7876 F208.00 
G01 X-26.0697 Y43.9328 
G01 X-25.9428 Y44.0597 
G01 X-25.7976 Y44.1652 
G01 X-25.6377 Y44.2467 
G01 X-25.4670 Y44.3021 
G01 X-25.2897 Y44.3302 
G01 X-25.1103 Y44.3302 
G01 X-24.9330 Y44.3021 
G01 X-24.7623 Y44.2467 
G01 X-24.6024 Y44.1652 
G01 X-24.4572 Y44.0597 
G01 X-24.3303 Y43.9328 
G01 X-24.2248 Y43.7876 
G01 X-24.1433 Y43.6277 
G01 X-24.0879 Y43.4570 
G01 X-24.0598 Y43.2797 
G01 X-24.0598 Y43.1003 
G01 X-24.0879 Y42.9230 
G01 X-24.1433 Y42.7523 
G01 X-24.2248 Y42.5924 
G01 X-24.3303 Y42.4472 
G01 X-24.4572 Y42.3203 
G01 X-24.6024 Y42.2148 
G01 X-24.7623 Y42.1333 
G01 X-24.9330 Y42.0779 
G01 X-25.1103 Y42.0498 
G01 X-25.2897 Y42.0498 
G01 X-25.4670 Y42.0779 
G01 X-25.6377 Y42.1333 
G01 X-25.7976 Y42.2148 
G01 X-25.9428 Y42.3203 
G01 X-26.0697 Y42.4472 
G01 X-26.1752 Y42.5924 
G01 X-26.2567 Y42.7523 
G01 X-26.2937 Y42.8664 
G01 X-26.3476 Y42.7362 
G01 X-26.4502 Y42.5827 
G01 X-26.5807 Y42.4522 
G01 X-26.7342 Y42.3496 
G01 X-26.9047 Y42.2790 
G01 X-27.0857 Y42.2430 
G01 X-28.7943 Y42.2430 
G01 X-28.9753 Y42.2790 
G01 X-29.1458 Y42.3496 
G01 X-29.2993 Y42.4522 
G01 X-29.4298 Y42.5827 
G01 X-29.5324 Y42.7362 
G01 X-29.6030 Y42.9067 
G01 X-29.6390 Y43.0877 
G01 X-29.6390 Y43.2723 
G01 X-29.6030 Y43.4533 
G01 X-29.5324 Y43.6238 
G01 X-29.4298 Y43.7773 
G01 X-29.2993 Y43.9078 
G01 X-29.1458 Y44.0104 
G01 X-28.9753 Y44.0810 
G01 X-28.7943 Y44.1170 
G01 X-27.0857 Y44.1170 
G01 X-26.9047 Y44.0810 
G01 X-26.7342 Y44.0104 
G01 X-26.5807 Y43.9078 
G01 X-26.4502 Y43.7773 
G01 X-26.3476 Y43.6238 
G01 X-26.2974 Y43.5024 
G01 X-26.2567 Y43.6277 
G00 Z2.0000 
G00 X-26.2567 Y41.0877 
G01 Z-0.1500 F100.00 
G01 X-26.1752 Y41.2476 F208.00 
G01 X-26.0697 Y41.3928 
G01 X-25.9428 Y41.5197 
G01 X-25.7976 Y41.6252 
G01 X-25.6377 Y41.7067 
G01 X-25.4670 Y41.7621 
G01 X-25.2897 Y41.7902 
G01 X-25.1103 Y41.7902 
G01 X-24.9330 Y41.7621 
G01 X-24.7623 Y41.7067 
G01 X-24.6024 Y41.6252 
G01 X-24.4572 Y41.5197 
G01 X-24.3303 Y41.3928 
G01 X-24.2248 Y41.2476 
G01 X-24.1433 Y41.0877 
G01 X-24.0879 Y40.9170 
G01 X-24.0598 Y40.7397 
G01 X-24.0598 Y40.5603 
G01 X-24.0879 Y40.3830 
G01 X-24.1433 Y40.2123 
G01 X-24.2248 Y40.0524 
G01 X-24.3303 Y39.9072 
G01 X-24.4572 Y39.7803 
G01 X-24.6024 Y39.6748 
G01 X-24.7623 Y39.5933 
G01 X-24.9330 Y39.5379 
G01 X-25.1103 Y39.5098 
G01 X-25.2897 Y39.5098 
G01 X-25.4670 Y39.5379 
G01 X-25.6377 Y39.5933 
G01 X-25.7976 Y39.6748 
G01 X-25.9428 Y39.7803 
G01 X-26.0697 Y39.9072 
G01 X-26.1752 Y40.0524 
G01 X-26.2567 Y40.2123 
G01 X-26.2937 Y40.3264 
G01 X-26.3476 Y40.1962 
G01 X-26.4502 Y40.0427 
G01 X-26.5807 Y39.9122 
G01 X-26.7342 Y39.8096 
G01 X-26.9047 Y39.7390 
G01 X-27.0857 Y39.7030 
G01 X-28.7943 Y39.7030 
G01 X-28.9753 Y39.7390 
G01 X-29.1458 Y39.8096 
G01 X-29.2993 Y39.9122 
G01 X-29.4298 Y40.0427 
G01 X-29.5324 Y40.1962 
G01 X-29.6030 Y40.3667 
G01 X-29.6390 Y40.5477 
G01 X-29.6390 Y40.7323 
G01 X-29.6030 Y40.9133 
G01 X-29.5324 Y41.0838 
G01 X-29.4298 Y41.2373 
G01 X-29.2993 Y41.3678 
G01 X-29.1458 Y41.4704 
G01 X-28.9753 Y41.5410 
G01 X-28.7943 Y41.5770 
G01 X-27.0857 Y41.5770 
G01 X-26.9047 Y41.5410 
G01 X-26.7342 Y41.4704 
G01 X-26.5807 Y41.3678 
G01 X-26.4502 Y41.2373 
G01 X-26.3476 Y41.0838 
G01 X-26.2974 Y40.9624 
G01 X-26.2567 Y41.0877 
G00 Z2.0000 
G00 X-26.2567 Y38.5477 
G01 Z-0.1500 F100.00 
G01 X-26.1752 Y38.7076 F208.00 
G01 X-26.0697 Y38.8528 
G01 X-25.9428 Y38.9797 
G01 X-25.7976 Y39.0852 
G01 X-25.6377 Y39.1667 
G01 X-25.4670 Y39.2221 
G01 X-25.2897 Y39.2502 
G01 X-25.1103 Y39.2502 
G01 X-24.9330 Y39.2221 
G01 X-24.7623 Y39.1667 
G01 X-24.6024 Y39.0852 
G01 X-24.4572 Y38.9797 
G01 X-24.3303 Y38.8528 
G01 X-24.2248 Y38.7076 
G01 X-24.1433 Y38.5477 
G01 X-24.0879 Y38.3770 
G01 X-24.0598 Y38.1997 
G01 X-24.0598 Y38.0203 
G01 X-24.0879 Y37.8430 
G01 X-24.1433 Y37.6723 
G01 X-24.2248 Y37.5124 
G01 X-24.3303 Y37.3672 
G01 X-24.4572 Y37.2403 
G01 X-24.6024 Y37.1348 
G01 X-24.7623 Y37.0533 
G01 X-24.9330 Y36.9979 
G01 X-25.1103 Y36.9698 
G01 X-25.2897 Y36.9698 
G01 X-25.4670 Y36.9979 
G01 X-25.6377 Y37.0533 
G01 X-25.7976 Y37.1348 
G01 X-25.9428 Y37.2403 
G01 X-26.0697 Y37.3672 
G01 X-26.1752 Y37.5124 
G01 X-26.2567 Y37.6723 
G01 X-26.2937 Y37.7864 
G01 X-26.3476 Y37.6562 
G01 X-26.4502 Y37.5027 
G01 X-26.5807 Y37.3722 
G01 X-26.7342 Y37.2696 
G01 X-26.9047 Y37.1990 
G01 X-27.0857 Y37.1630 
G01 X-28.7943 Y37.1630 
G01 X-28.9753 Y37.1990 
G01 X-29.1458 Y37.2696 
G01 X-29.2993 Y37.3722 
G01 X-29.4298 Y37.5027 
G01 X-29.5324 Y37.6562 
G01 X-29.6030 Y37.8267 
G01 X-29.6390 Y38.0077 
G01 X-29.6390 Y38.1923 
G01 X-29.6030 Y38.3733 
G01 X-29.5324 Y38.5438 
G01 X-29.4298 Y38.6973 
G01 X-29.2993 Y38.8278 
G01 X-29.1458 Y38.9304 
G01 X-28.9753 Y39.0010 
G01 X-28.7943 Y39.0370 
G01 X-27.0857 Y39.0370 
G01 X-26.9047 Y39.0010 
G01 X-26.7342 Y38.9304 
G01 X-26.5807 Y38.8278 
G01 X-26.4502 Y38.6973 
G01 X-26.3476 Y38.5438 
G01 X-26.2974 Y38.4224 
G01 X-26.2567 Y38.5477 
G00 Z2.0000 
G00 X-26.2567 Y36.0077 
G01 Z-0.1500 F100.00 
G01 X-26.1752 Y36.1676 F208.00 
G01 X-26.0697 Y36.3128 
G01 X-25.9428 Y36.4397 
G01 X-25.7976 Y36.5452 
G01 X-25.6377 Y36.6267 
G01 X-25.4670 Y36.6821 
G01 X-25.2897 Y36.7102 
G01 X-25.1103 Y36.7102 
G01 X-24.9330 Y36.6821 
G01 X-24.7623 Y36.6267 
G01 X-24.6024 Y36.5452 
G01 X-24.4572 Y36.4397 
G01 X-24.3303 Y36.3128 
G01 X-24.2248 Y36.1676 
G01 X-24.1433 Y36.0077 
G01 X-24.0879 Y35.8370 
G01 X-24.0598 Y35.6597 
G01 X-24.0598 Y35.4803 
G01 X-24.0879 Y35.3030 
G01 X-24.1433 Y35.1323 
G01 X-24.2248 Y34.9724 
G01 X-24.3303 Y34.8272 
G01 X-24.4572 Y34.7003 
G01 X-24.6024 Y34.5948 
G01 X-24.7623 Y34.5133 
G01 X-24.9330 Y34.4579 
G01 X-25.1103 Y34.4298 
G01 X-25.2897 Y34.4298 
G01 X-25.4670 Y34.4579 
G01 X-25.6377 Y34.5133 
G01 X-25.7976 Y34.5948 
G01 X-25.9428 Y34.7003 
G01 X-26.0697 Y34.8272 
G01 X-26.1752 Y34.9724 
G01 X-26.2567 Y35.1323 
G01 X-26.2937 Y35.2464 
G01 X-26.3476 Y35.1162 
G01 X-26.4502 Y34.9627 
G01 X-26.5807 Y34.8322 
G01 X-26.7342 Y34.7296 
G01 X-26.9047 Y34.6590 
G01 X-27.0857 Y34.6230 
G01 X-28.7943 Y34.6230 
G01 X-28.9753 Y34.6590 
G01 X-29.1458 Y34.7296 
G01 X-29.2993 Y34.8322 
G01 X-29.4298 Y34.9627 
G01 X-29.5324 Y35.1162 
G01 X-29.6030 Y35.2867 
G01 X-29.6390 Y35.4677 
G01 X-29.6390 Y35.6523 
G01 X-29.6030 Y35.8333 
G01 X-29.5324 Y36.0038 
G01 X-29.4298 Y36.1573 
G01 X-29.2993 Y36.2878 
G01 X-29.1458 Y36.3904 
G01 X-28.9753 Y36.4610 
G01 X-28.7943 Y36.4970 
G01 X-27.0857 Y36.4970 
G01 X-26.9047 Y36.4610 
G01 X-26.7342 Y36.3904 
G01 X-26.5807 Y36.2878 
G01 X-26.4502 Y36.1573 
G01 X-26.3476 Y36.0038 
G01 X-26.2974 Y35.8824 
G01 X-26.2567 Y36.0077 
G00 Z2.0000 
G00 X-26.1752 Y33.6276 
G01 Z-0.1500 F100.00 
G01 X-26.0697 Y33.7728 F208.00 
G01 X-25.9428 Y33.8997 
G01 X-25.7976 Y34.0052 
G01 X-25.6377 Y34.0867 
G01 X-25.4670 Y34.1421 
G01 X-25.2897 Y34.1702 
G01 X-25.1103 Y34.1702 
G01 X-24.9330 Y34.1421 
G01 X-24.7623 Y34.0867 
G01 X-24.6024 Y34.0052 
G01 X-24.4572 Y33.8997 
G01 X-24.3303 Y33.7728 
G01 X-24.2248 Y33.6276 
G01 X-24.2166 Y33.6114 
G01 X-15.9737 Y33.6114 
G01 X-15.6281 Y33.9570 
G01 X-14.8519 Y33.9570 
G01 X-14.3030 Y33.4081 
G01 X-14.3030 Y32.6319 
G01 X-14.8519 Y32.0830 
G01 X-15.6281 Y32.0830 
G01 X-15.9937 Y32.4486 
G01 X-24.2166 Y32.4486 
G01 X-24.2248 Y32.4324 
G01 X-24.3303 Y32.2872 
G01 X-24.4572 Y32.1603 
G01 X-24.6024 Y32.0548 
G01 X-24.7623 Y31.9733 
G01 X-24.9330 Y31.9179 
G01 X-25.1103 Y31.8898 
G01 X-25.2897 Y31.8898 
G01 X-25.4670 Y31.9179 
G01 X-25.6377 Y31.9733 
G01 X-25.7976 Y32.0548 
G01 X-25.9428 Y32.1603 
G01 X-26.0697 Y32.2872 
G01 X-26.1752 Y32.4324 
G01 X-26.1834 Y32.4486 
G01 X-26.4329 Y32.4486 
G01 X-26.4502 Y32.4227 
G01 X-26.5807 Y32.2922 
G01 X-26.7342 Y32.1896 
G01 X-26.9047 Y32.1190 
G01 X-27.0857 Y32.0830 
G01 X-28.7943 Y32.0830 
G01 X-28.9753 Y32.1190 
G01 X-29.1458 Y32.1896 
G01 X-29.2993 Y32.2922 
G01 X-29.4298 Y32.4227 
G01 X-29.5324 Y32.5762 
G01 X-29.6030 Y32.7467 
G01 X-29.6390 Y32.9277 
G01 X-29.6390 Y33.1123 
G01 X-29.6030 Y33.2933 
G01 X-29.5324 Y33.4638 
G01 X-29.4298 Y33.6173 
G01 X-29.2993 Y33.7478 
G01 X-29.1458 Y33.8504 
G01 X-28.9753 Y33.9210 
G01 X-28.7943 Y33.9570 
G01 X-27.0857 Y33.9570 
G01 X-26.9047 Y33.9210 
G01 X-26.7342 Y33.8504 
G01 X-26.5807 Y33.7478 
G01 X-26.4502 Y33.6173 
G01 X-26.4462 Y33.6114 
G01 X-26.1834 Y33.6114 
G01 X-26.1752 Y33.6276 
G00 Z2.0000 
G00 X-26.2567 Y25.8477 
G01 Z-0.1500 F100.00 
G01 X-26.1752 Y26.0076 F208.00 
G01 X-26.0697 Y26.1528 
G01 X-25.9428 Y26.2797 
G01 X-25.7976 Y26.3852 
G01 X-25.6377 Y26.4667 
G01 X-25.4670 Y26.5221 
G01 X-25.2897 Y26.5502 
G01 X-25.1103 Y26.5502 
G01 X-24.9330 Y26.5221 
G01 X-24.7623 Y26.4667 
G01 X-24.6024 Y26.3852 
G01 X-24.4572 Y26.2797 
G01 X-24.3303 Y26.1528 
G01 X-24.2248 Y26.0076 
G01 X-24.1433 Y25.8477 
G01 X-24.0879 Y25.6770 
G01 X-24.0598 Y25.4997 
G01 X-24.0598 Y25.3203 
G01 X-24.0879 Y25.1430 
G01 X-24.1433 Y24.9723 
G01 X-24.2248 Y24.8124 
G01 X-24.3303 Y24.6672 
G01 X-24.4572 Y24.5403 
G01 X-24.6024 Y24.4348 
G01 X-24.7623 Y24.3533 
G01 X-24.9330 Y24.2979 
G01 X-25.1103 Y24.2698 
G01 X-25.2897 Y24.2698 
G01 X-25.4670 Y24.2979 
G01 X-25.6377 Y24.3533 
G01 X-25.7976 Y24.4348 
G01 X-25.9428 Y24.5403 
G01 X-26.0697 Y24.6672 
G01 X-26.1752 Y24.8124 
G01 X-26.2567 Y24.9723 
G01 X-26.2937 Y25.0864 
G01 X-26.3476 Y24.9562 
G01 X-26.4502 Y24.8027 
G01 X-26.5807 Y24.6722 
G01 X-26.7342 Y24.5696 
G01 X-26.9047 Y24.4990 
G01 X-27.0857 Y24.4630 
G01 X-28.7943 Y24.4630 
G01 X-28.9753 Y24.4990 
G01 X-29.1458 Y24.5696 
G01 X-29.2993 Y24.6722 
G01 X-29.4298 Y24.8027 
G01 X-29.5324 Y24.9562 
G01 X-29.6030 Y25.1267 
G01 X-29.6390 Y25.3077 
G01 X-29.6390 Y25.4923 
G01 X-29.6030 Y25.6733 
G01 X-29.5324 Y25.8438 
G01 X-29.4298 Y25.9973 
G01 X-29.2993 Y26.1278 
G01 X-29.1458 Y26.2304 
G01 X-28.9753 Y26.3010 
G01 X-28.7943 Y26.3370 
G01 X-27.0857 Y26.3370 
G01 X-26.9047 Y26.3010 
G01 X-26.7342 Y26.2304 
G01 X-26.5807 Y26.1278 
G01 X-26.4502 Y25.9973 
G01 X-26.3476 Y25.8438 
G01 X-26.2974 Y25.7224 
G01 X-26.2567 Y25.8477 
G00 Z2.0000 
G00 X-26.2567 Y18.2277 
G01 Z-0.1500 F100.00 
G01 X-26.1752 Y18.3876 F208.00 
G01 X-26.0697 Y18.5328 
G01 X-25.9428 Y18.6597 
G01 X-25.7976 Y18.7652 
G01 X-25.6377 Y18.8467 
G01 X-25.4670 Y18.9021 
G01 X-25.2897 Y18.9302 
G01 X-25.1103 Y18.9302 
G01 X-24.9330 Y18.9021 
G01 X-24.7623 Y18.8467 
G01 X-24.6024 Y18.7652 
G01 X-24.4572 Y18.6597 
G01 X-24.3303 Y18.5328 
G01 X-24.2248 Y18.3876 
G01 X-24.1433 Y18.2277 
G01 X-24.0879 Y18.0570 
G01 X-24.0598 Y17.8797 
G01 X-24.0598 Y17.7003 
G01 X-24.0879 Y17.5230 
G01 X-24.1433 Y17.3523 
G01 X-24.2248 Y17.1924 
G01 X-24.3303 Y17.0472 
G01 X-24.4572 Y16.9203 
G01 X-24.6024 Y16.8148 
G01 X-24.7623 Y16.7333 
G01 X-24.9330 Y16.6779 
G01 X-25.1103 Y16.6498 
G01 X-25.2897 Y16.6498 
G01 X-25.4670 Y16.6779 
G01 X-25.6377 Y16.7333 
G01 X-25.7976 Y16.8148 
G01 X-25.9428 Y16.9203 
G01 X-26.0697 Y17.0472 
G01 X-26.1752 Y17.1924 
G01 X-26.2567 Y17.3523 
G01 X-26.2937 Y17.4664 
G01 X-26.3476 Y17.3362 
G01 X-26.4502 Y17.1827 
G01 X-26.5807 Y17.0522 
G01 X-26.7342 Y16.9496 
G01 X-26.9047 Y16.8790 
G01 X-27.0857 Y16.8430 
G01 X-28.7943 Y16.8430 
G01 X-28.9753 Y16.8790 
G01 X-29.1458 Y16.9496 
G01 X-29.2993 Y17.0522 
G01 X-29.4298 Y17.1827 
G01 X-29.5324 Y17.3362 
G01 X-29.6030 Y17.5067 
G01 X-29.6390 Y17.6877 
G01 X-29.6390 Y17.8723 
G01 X-29.6030 Y18.0533 
G01 X-29.5324 Y18.2238 
G01 X-29.4298 Y18.3773 
G01 X-29.2993 Y18.5078 
G01 X-29.1458 Y18.6104 
G01 X-28.9753 Y18.6810 
G01 X-28.7943 Y18.7170 
G01 X-27.0857 Y18.7170 
G01 X-26.9047 Y18.6810 
G01 X-26.7342 Y18.6104 
G01 X-26.5807 Y18.5078 
G01 X-26.4502 Y18.3773 
G01 X-26.3476 Y18.2238 
G01 X-26.2974 Y18.1024 
G01 X-26.2567 Y18.2277 
G00 Z2.0000 
G00 X-26.2567 Y15.6877 
G01 Z-0.1500 F100.00 
G01 X-26.1752 Y15.8476 F208.00 
G01 X-26.0697 Y15.9928 
G01 X-25.9428 Y16.1197 
G01 X-25.7976 Y16.2252 
G01 X-25.6377 Y16.3067 
G01 X-25.4670 Y16.3621 
G01 X-25.2897 Y16.3902 
G01 X-25.1103 Y16.3902 
G01 X-24.9330 Y16.3621 
G01 X-24.7623 Y16.3067 
G01 X-24.6024 Y16.2252 
G01 X-24.4572 Y16.1197 
G01 X-24.3303 Y15.9928 
G01 X-24.2248 Y15.8476 
G01 X-24.1433 Y15.6877 
G01 X-24.0879 Y15.5170 
G01 X-24.0598 Y15.3397 
G01 X-24.0598 Y15.1603 
G01 X-24.0879 Y14.9830 
G01 X-24.1433 Y14.8123 
G01 X-24.2248 Y14.6524 
G01 X-24.3303 Y14.5072 
G01 X-24.4572 Y14.3803 
G01 X-24.6024 Y14.2748 
G01 X-24.7623 Y14.1933 
G01 X-24.9330 Y14.1379 
G01 X-25.1103 Y14.1098 
G01 X-25.2897 Y14.1098 
G01 X-25.4670 Y14.1379 
G01 X-25.6377 Y14.1933 
G01 X-25.7976 Y14.2748 
G01 X-25.9428 Y14.3803 
G01 X-26.0697 Y14.5072 
G01 X-26.1752 Y14.6524 
G01 X-26.2567 Y14.8123 
G01 X-26.2937 Y14.9264 
G01 X-26.3476 Y14.7962 
G01 X-26.4502 Y14.6427 
G01 X-26.5807 Y14.5122 
G01 X-26.7342 Y14.4096 
G01 X-26.9047 Y14.3390 
G01 X-27.0857 Y14.3030 
G01 X-28.7943 Y14.3030 
G01 X-28.9753 Y14.3390 
G01 X-29.1458 Y14.4096 
G01 X-29.2993 Y14.5122 
G01 X-29.4298 Y14.6427 
G01 X-29.5324 Y14.7962 
G01 X-29.6030 Y14.9667 
G01 X-29.6390 Y15.1477 
G01 X-29.6390 Y15.3323 
G01 X-29.6030 Y15.5133 
G01 X-29.5324 Y15.6838 
G01 X-29.4298 Y15.8373 
G01 X-29.2993 Y15.9678 
G01 X-29.1458 Y16.0704 
G01 X-28.9753 Y16.1410 
G01 X-28.7943 Y16.1770 
G01 X-27.0857 Y16.1770 
G01 X-26.9047 Y16.1410 
G01 X-26.7342 Y16.0704 
G01 X-26.5807 Y15.9678 
G01 X-26.4502 Y15.8373 
G01 X-26.3476 Y15.6838 
G01 X-26.2974 Y15.5624 
G01 X-26.2567 Y15.6877 
G00 Z2.0000 
G00 X-26.2567 Y13.1477 
G01 Z-0.1500 F100.00 
G01 X-26.1752 Y13.3076 F208.00 
G01 X-26.0697 Y13.4528 
G01 X-25.9428 Y13.5797 
G01 X-25.7976 Y13.6852 
G01 X-25.6377 Y13.7667 
G01 X-25.4670 Y13.8221 
G01 X-25.2897 Y13.8502 
G01 X-25.1103 Y13.8502 
G01 X-24.9330 Y13.8221 
G01 X-24.7623 Y13.7667 
G01 X-24.6024 Y13.6852 
G01 X-24.4572 Y13.5797 
G01 X-24.3303 Y13.4528 
G01 X-24.2248 Y13.3076 
G01 X-24.1433 Y13.1477 
G01 X-24.0879 Y12.9770 
G01 X-24.0598 Y12.7997 
G01 X-24.0598 Y12.6203 
G01 X-24.0879 Y12.4430 
G01 X-24.1433 Y12.2723 
G01 X-24.2248 Y12.1124 
G01 X-24.3303 Y11.9672 
G01 X-24.4572 Y11.8403 
G01 X-24.6024 Y11.7348 
G01 X-24.7623 Y11.6533 
G01 X-24.9330 Y11.5979 
G01 X-25.1103 Y11.5698 
G01 X-25.2897 Y11.5698 
G01 X-25.4670 Y11.5979 
G01 X-25.6377 Y11.6533 
G01 X-25.7976 Y11.7348 
G01 X-25.9428 Y11.8403 
G01 X-26.0697 Y11.9672 
G01 X-26.1752 Y12.1124 
G01 X-26.2567 Y12.2723 
G01 X-26.2937 Y12.3864 
G01 X-26.3476 Y12.2562 
G01 X-26.4502 Y12.1027 
G01 X-26.5807 Y11.9722 
G01 X-26.7342 Y11.8696 
G01 X-26.9047 Y11.7990 
G01 X-27.0857 Y11.7630 
G01 X-28.7943 Y11.7630 
G01 X-28.9753 Y11.7990 
G01 X-29.1458 Y11.8696 
G01 X-29.2993 Y11.9722 
G01 X-29.4298 Y12.1027 
G01 X-29.5324 Y12.2562 
G01 X-29.6030 Y12.4267 
G01 X-29.6390 Y12.6077 
G01 X-29.6390 Y12.7923 
G01 X-29.6030 Y12.9733 
G01 X-29.5324 Y13.1438 
G01 X-29.4298 Y13.2973 
G01 X-29.2993 Y13.4278 
G01 X-29.1458 Y13.5304 
G01 X-28.9753 Y13.6010 
G01 X-28.7943 Y13.6370 
G01 X-27.0857 Y13.6370 
G01 X-26.9047 Y13.6010 
G01 X-26.7342 Y13.5304 
G01 X-26.5807 Y13.4278 
G01 X-26.4502 Y13.2973 
G01 X-26.3476 Y13.1438 
G01 X-26.2974 Y13.0224 
G01 X-26.2567 Y13.1477 
G00 Z2.0000 
G00 X-26.2567 Y10.6077 
G01 Z-0.1500 F100.00 
G01 X-26.1752 Y10.7676 F208.00 
G01 X-26.0697 Y10.9128 
G01 X-25.9428 Y11.0397 
G01 X-25.7976 Y11.1452 
G01 X-25.6377 Y11.2267 
G01 X-25.4670 Y11.2821 
G01 X-25.2897 Y11.3102 
G01 X-25.1103 Y11.3102 
G01 X-24.9330 Y11.2821 
G01 X-24.7623 Y11.2267 
G01 X-24.6024 Y11.1452 
G01 X-24.4572 Y11.0397 
G01 X-24.3303 Y10.9128 
G01 X-24.2248 Y10.7676 
G01 X-24.1433 Y10.6077 
G01 X-24.0879 Y10.4370 
G01 X-24.0598 Y10.2597 
G01 X-24.0598 Y10.0803 
G01 X-24.0879 Y9.9030 
G01 X-24.1433 Y9.7323 
G01 X-24.2248 Y9.5724 
G01 X-24.3303 Y9.4272 
G01 X-24.4572 Y9.3003 
G01 X-24.6024 Y9.1948 
G01 X-24.7623 Y9.1133 
G01 X-24.9330 Y9.0579 
G01 X-25.1103 Y9.0298 
G01 X-25.2897 Y9.0298 
G01 X-25.4670 Y9.0579 
G01 X-25.6377 Y9.1133 
G01 X-25.7976 Y9.1948 
G01 X-25.9428 Y9.3003 
G01 X-26.0697 Y9.4272 
G01 X-26.1752 Y9.5724 
G01 X-26.2567 Y9.7323 
G01 X-26.2937 Y9.8464 
G01 X-26.3476 Y9.7162 
G01 X-26.4502 Y9.5627 
G01 X-26.5807 Y9.4322 
G01 X-26.7342 Y9.3296 
G01 X-26.9047 Y9.2590 
G01 X-27.0857 Y9.2230 
G01 X-28.7943 Y9.2230 
G01 X-28.9753 Y9.2590 
G01 X-29.1458 Y9.3296 
G01 X-29.2993 Y9.4322 
G01 X-29.4298 Y9.5627 
G01 X-29.5324 Y9.7162 
G01 X-29.6030 Y9.8867 
G01 X-29.6390 Y10.0677 
G01 X-29.6390 Y10.2523 
G01 X-29.6030 Y10.4333 
G01 X-29.5324 Y10.6038 
G01 X-29.4298 Y10.7573 
G01 X-29.2993 Y10.8878 
G01 X-29.1458 Y10.9904 
G01 X-28.9753 Y11.0610 
G01 X-28.7943 Y11.0970 
G01 X-27.0857 Y11.0970 
G01 X-26.9047 Y11.0610 
G01 X-26.7342 Y10.9904 
G01 X-26.5807 Y10.8878 
G01 X-26.4502 Y10.7573 
G01 X-26.3476 Y10.6038 
G01 X-26.2974 Y10.4824 
G01 X-26.2567 Y10.6077 
G00 Z2.0000 
G00 X-26.2567 Y8.0677 
G01 Z-0.1500 F100.00 
G01 X-26.1752 Y8.2276 F208.00 
G01 X-26.0697 Y8.3728 
G01 X-25.9428 Y8.4997 
G01 X-25.7976 Y8.6052 
G01 X-25.6377 Y8.6867 
G01 X-25.4670 Y8.7421 
G01 X-25.2897 Y8.7702 
G01 X-25.1103 Y8.7702 
G01 X-24.9330 Y8.7421 
G01 X-24.7623 Y8.6867 
G01 X-24.6024 Y8.6052 
G01 X-24.4572 Y8.4997 
G01 X-24.3303 Y8.3728 
G01 X-24.2248 Y8.2276 
G01 X-24.1433 Y8.0677 
G01 X-24.0879 Y7.8970 
G01 X-24.0598 Y7.7197 
G01 X-24.0598 Y7.5403 
G01 X-24.0879 Y7.3630 
G01 X-24.1433 Y7.1923 
G01 X-24.2248 Y7.0324 
G01 X-24.3303 Y6.8872 
G01 X-24.4572 Y6.7603 
G01 X-24.6024 Y6.6548 
G01 X-24.7623 Y6.5733 
G01 X-24.9330 Y6.5179 
G01 X-25.1103 Y6.4898 
G01 X-25.2897 Y6.4898 
G01 X-25.4670 Y6.5179 
G01 X-25.6377 Y6.5733 
G01 X-25.7976 Y6.6548 
G01 X-25.9428 Y6.7603 
G01 X-26.0697 Y6.8872 
G01 X-26.1752 Y7.0324 
G01 X-26.2567 Y7.1923 
G01 X-26.2937 Y7.3064 
G01 X-26.3476 Y7.1762 
G01 X-26.4502 Y7.0227 
G01 X-26.5807 Y6.8922 
G01 X-26.7342 Y6.7896 
G01 X-26.9047 Y6.7190 
G01 X-27.0857 Y6.6830 
G01 X-28.7943 Y6.6830 
G01 X-28.9753 Y6.7190 
G01 X-29.1458 Y6.7896 
G01 X-29.2993 Y6.8922 
G01 X-29.4298 Y7.0227 
G01 X-29.5324 Y7.1762 
G01 X-29.6030 Y7.3467 
G01 X-29.6390 Y7.5277 
G01 X-29.6390 Y7.7123 
G01 X-29.6030 Y7.8933 
G01 X-29.5324 Y8.0638 
G01 X-29.4298 Y8.2173 
G01 X-29.2993 Y8.3478 
G01 X-29.1458 Y8.4504 
G01 X-28.9753 Y8.5210 
G01 X-28.7943 Y8.5570 
G01 X-27.0857 Y8.5570 
G01 X-26.9047 Y8.5210 
G01 X-26.7342 Y8.4504 
G01 X-26.5807 Y8.3478 
G01 X-26.4502 Y8.2173 
G01 X-26.3476 Y8.0638 
G01 X-26.2974 Y7.9424 
G01 X-26.2567 Y8.0677 
G00 Z2.0000 
G00 X-26.2567 Y5.5277 
G01 Z-0.1500 F100.00 
G01 X-26.1752 Y5.6876 F208.00 
G01 X-26.0697 Y5.8328 
G01 X-25.9428 Y5.9597 
G01 X-25.7976 Y6.0652 
G01 X-25.6377 Y6.1467 
G01 X-25.4670 Y6.2021 
G01 X-25.2897 Y6.2302 
G01 X-25.1103 Y6.2302 
G01 X-24.9330 Y6.2021 
G01 X-24.7623 Y6.1467 
G01 X-24.6024 Y6.0652 
G01 X-24.4572 Y5.9597 
G01 X-24.3303 Y5.8328 
G01 X-24.2248 Y5.6876 
G01 X-24.1433 Y5.5277 
G01 X-24.0879 Y5.3570 
G01 X-24.0598 Y5.1797 
G01 X-24.0598 Y5.0003 
G01 X-24.0879 Y4.8230 
G01 X-24.1433 Y4.6523 
G01 X-24.2248 Y4.4924 
G01 X-24.3303 Y4.3472 
G01 X-24.4572 Y4.2203 
G01 X-24.6024 Y4.1148 
G01 X-24.7623 Y4.0333 
G01 X-24.9330 Y3.9779 
G01 X-25.1103 Y3.9498 
G01 X-25.2897 Y3.9498 
G01 X-25.4670 Y3.9779 
G01 X-25.6377 Y4.0333 
G01 X-25.7976 Y4.1148 
G01 X-25.9428 Y4.2203 
G01 X-26.0697 Y4.3472 
G01 X-26.1752 Y4.4924 
G01 X-26.2567 Y4.6523 
G01 X-26.2937 Y4.7664 
G01 X-26.3476 Y4.6362 
G01 X-26.4502 Y4.4827 
G01 X-26.5807 Y4.3522 
G01 X-26.7342 Y4.2496 
G01 X-26.9047 Y4.1790 
G01 X-27.0857 Y4.1430 
G01 X-28.7943 Y4.1430 
G01 X-28.9753 Y4.1790 
G01 X-29.1458 Y4.2496 
G01 X-29.2993 Y4.3522 
G01 X-29.4298 Y4.4827 
G01 X-29.5324 Y4.6362 
G01 X-29.6030 Y4.8067 
G01 X-29.6390 Y4.9877 
G01 X-29.6390 Y5.1723 
G01 X-29.6030 Y5.3533 
G01 X-29.5324 Y5.5238 
G01 X-29.4298 Y5.6773 
G01 X-29.2993 Y5.8078 
G01 X-29.1458 Y5.9104 
G01 X-28.9753 Y5.9810 
G01 X-28.7943 Y6.0170 
G01 X-27.0857 Y6.0170 
G01 X-26.9047 Y5.9810 
G01 X-26.7342 Y5.9104 
G01 X-26.5807 Y5.8078 
G01 X-26.4502 Y5.6773 
G01 X-26.3476 Y5.5238 
G01 X-26.2974 Y5.4024 
G01 X-26.2567 Y5.5277 
G00 Z2.0000 
G00 X-26.2567 Y2.9877 
G01 Z-0.1500 F100.00 
G01 X-26.1752 Y3.1476 F208.00 
G01 X-26.0697 Y3.2928 
G01 X-25.9428 Y3.4197 
G01 X-25.7976 Y3.5252 
G01 X-25.6377 Y3.6067 
G01 X-25.4670 Y3.6621 
G01 X-25.2897 Y3.6902 
G01 X-25.1103 Y3.6902 
G01 X-24.9330 Y3.6621 
G01 X-24.7623 Y3.6067 
G01 X-24.6024 Y3.5252 
G01 X-24.4572 Y3.4197 
G01 X-24.3303 Y3.2928 
G01 X-24.2248 Y3.1476 
G01 X-24.1433 Y2.9877 
G01 X-24.0879 Y2.8170 
G01 X-24.0598 Y2.6397 
G01 X-24.0598 Y2.4603 
G01 X-24.0879 Y2.2830 
G01 X-24.1433 Y2.1123 
G01 X-24.2248 Y1.9524 
G01 X-24.3303 Y1.8072 
G01 X-24.4572 Y1.6803 
G01 X-24.6024 Y1.5748 
G01 X-24.7623 Y1.4933 
G01 X-24.9330 Y1.4379 
G01 X-25.1103 Y1.4098 
G01 X-25.2897 Y1.4098 
G01 X-25.4670 Y1.4379 
G01 X-25.6377 Y1.4933 
G01 X-25.7976 Y1.5748 
G01 X-25.9428 Y1.6803 
G01 X-26.0697 Y1.8072 
G01 X-26.1752 Y1.9524 
G01 X-26.2567 Y2.1123 
G01 X-26.2937 Y2.2264 
G01 X-26.3476 Y2.0962 
G01 X-26.4502 Y1.9427 
G01 X-26.5807 Y1.8122 
G01 X-26.7342 Y1.7096 
G01 X-26.9047 Y1.6390 
G01 X-27.0857 Y1.6030 
G01 X-28.7943 Y1.6030 
G01 X-28.9753 Y1.6390 
G01 X-29.1458 Y1.7096 
G01 X-29.2993 Y1.8122 
G01 X-29.4298 Y1.9427 
G01 X-29.5324 Y2.0962 
G01 X-29.6030 Y2.2667 
G01 X-29.6390 Y2.4477 
G01 X-29.6390 Y2.6323 
G01 X-29.6030 Y2.8133 
G01 X-29.5324 Y2.9838 
G01 X-29.4298 Y3.1373 
G01 X-29.2993 Y3.2678 
G01 X-29.1458 Y3.3704 
G01 X-28.9753 Y3.4410 
G01 X-28.7943 Y3.4770 
G01 X-27.0857 Y3.4770 
G01 X-26.9047 Y3.4410 
G01 X-26.7342 Y3.3704 
G01 X-26.5807 Y3.2678 
G01 X-26.4502 Y3.1373 
G01 X-26.3476 Y2.9838 
G01 X-26.2974 Y2.8624 
G01 X-26.2567 Y2.9877 
G00 Z2.0000 
G00 X-19.3250 Y44.4138 
G01 Z-0.1500 F100.00 
G01 X-19.3250 Y47.0262 F208.00 
G01 X-19.3063 Y47.0961 
G01 X-19.2701 Y47.1589 
G01 X-19.2189 Y47.2101 
G01 X-19.1561 Y47.2463 
G01 X-19.0862 Y47.2650 
G01 X-17.7438 Y47.2650 
G01 X-17.6739 Y47.2463 
G01 X-17.6111 Y47.2101 
G01 X-17.5599 Y47.1589 
G01 X-17.5237 Y47.0961 
G01 X-17.5050 Y47.0262 
G01 X-17.5050 Y44.4138 
G01 X-17.5237 Y44.3439 
G01 X-17.5599 Y44.2811 
G01 X-17.6111 Y44.2299 
G01 X-17.6739 Y44.1937 
G01 X-17.7438 Y44.1750 
G01 X-19.0862 Y44.1750 
G01 X-19.1561 Y44.1937 
G01 X-19.2189 Y44.2299 
G01 X-19.2701 Y44.2811 
G01 X-19.3063 Y44.3439 
G01 X-19.3250 Y44.4138 
G00 Z2.0000 
G00 X-10.4350 Y36.7938 
G01 Z-0.1500 F100.00 
G01 X-10.4350 Y38.1362 F208.00 
G01 X-10.4163 Y38.2061 
G01 X-10.3801 Y38.2689 
G01 X-10.3289 Y38.3201 
G01 X-10.2661 Y38.3563 
G01 X-10.1962 Y38.3750 
G01 X-8.8538 Y38.3750 
G01 X-8.7839 Y38.3563 
G01 X-8.7211 Y38.3201 
G01 X-8.6699 Y38.2689 
G01 X-8.6337 Y38.2061 
G01 X-8.6150 Y38.1362 
G01 X-8.6150 Y36.7938 
G01 X-8.6337 Y36.7239 
G01 X-8.6699 Y36.6611 
G01 X-8.7211 Y36.6099 
G01 X-8.7839 Y36.5737 
G01 X-8.8538 Y36.5550 
G01 X-10.1962 Y36.5550 
G01 X-10.2661 Y36.5737 
G01 X-10.3289 Y36.6099 
G01 X-10.3801 Y36.6611 
G01 X-10.4163 Y36.7239 
G01 X-10.4350 Y36.7938 
G00 Z2.0000 
G00 X-15.6695 Y31.5170 
G01 Z-0.1500 F100.00 
G01 X-14.8105 Y31.5170 F208.00 
G01 X-14.2030 Y30.9095 
G01 X-14.2030 Y30.0505 
G01 X-14.8105 Y29.4430 
G01 X-15.6695 Y29.4430 
G01 X-16.0251 Y29.7986 
G01 X-16.5771 Y29.7986 
G01 X-16.6274 Y29.8086 
G01 X-24.1621 Y29.8086 
G01 X-24.2540 Y29.6821 
G01 X-24.3921 Y29.5440 
G01 X-24.5500 Y29.4293 
G01 X-24.7239 Y29.3407 
G01 X-24.9096 Y29.2803 
G01 X-25.1024 Y29.2498 
G01 X-25.2976 Y29.2498 
G01 X-25.4904 Y29.2803 
G01 X-25.6761 Y29.3407 
G01 X-25.8500 Y29.4293 
G01 X-26.0079 Y29.5440 
G01 X-26.1460 Y29.6821 
G01 X-26.2379 Y29.8086 
G01 X-26.3840 Y29.8086 
G01 X-26.3870 Y29.8044 
G01 X-26.5024 Y29.6890 
G01 X-26.6345 Y29.5931 
G01 X-26.7799 Y29.5190 
G01 X-26.9352 Y29.4685 
G01 X-27.0964 Y29.4430 
G01 X-28.7836 Y29.4430 
G01 X-28.9448 Y29.4685 
G01 X-29.1001 Y29.5190 
G01 X-29.2455 Y29.5931 
G01 X-29.3776 Y29.6890 
G01 X-29.4930 Y29.8044 
G01 X-29.5889 Y29.9365 
G01 X-29.6630 Y30.0819 
G01 X-29.7135 Y30.2372 
G01 X-29.7390 Y30.3984 
G01 X-29.7390 Y30.5616 
G01 X-29.7135 Y30.7228 
G01 X-29.6630 Y30.8781 
G01 X-29.5889 Y31.0235 
G01 X-29.4930 Y31.1556 
G01 X-29.3776 Y31.2710 
G01 X-29.2455 Y31.3669 
G01 X-29.1001 Y31.4410 
G01 X-28.9448 Y31.4915 
G01 X-28.7836 Y31.5170 
G01 X-27.0964 Y31.5170 
G01 X-26.9352 Y31.4915 
G01 X-26.7799 Y31.4410 
G01 X-26.6345 Y31.3669 
G01 X-26.5024 Y31.2710 
G01 X-26.4029 Y31.1714 
G01 X-26.2379 Y31.1714 
G01 X-26.1460 Y31.2979 
G01 X-26.0079 Y31.4360 
G01 X-25.8500 Y31.5507 
G01 X-25.6761 Y31.6393 
G01 X-25.4904 Y31.6997 
G01 X-25.2976 Y31.7302 
G01 X-25.1024 Y31.7302 
G01 X-24.9096 Y31.6997 
G01 X-24.7239 Y31.6393 
G01 X-24.5500 Y31.5507 
G01 X-24.3921 Y31.4360 
G01 X-24.2540 Y31.2979 
G01 X-24.1621 Y31.1714 
G01 X-16.4529 Y31.1714 
G01 X-16.4026 Y31.1614 
G01 X-16.0251 Y31.1614 
G01 X-15.6695 Y31.5170 
G00 Z2.0000 
G00 X-13.7370 Y27.5105 
G01 Z-0.1500 F100.00 
G01 X-13.7370 Y28.3695 F208.00 
G01 X-13.1295 Y28.9770 
G01 X-12.2705 Y28.9770 
G01 X-11.9149 Y28.6214 
G01 X-8.8229 Y28.6214 
G01 X-8.6912 Y28.5952 
G01 X-8.5672 Y28.5438 
G01 X-8.4556 Y28.4693 
G01 X-8.3607 Y28.3744 
G01 X-6.0678 Y26.0814 
G01 X-5.1874 Y26.0814 
G01 X-5.1371 Y26.0914 
G01 X-3.5879 Y26.0914 
G01 X-3.4960 Y26.2179 
G01 X-3.3579 Y26.3560 
G01 X-3.2000 Y26.4707 
G01 X-3.0261 Y26.5593 
G01 X-2.8404 Y26.6197 
G01 X-2.6476 Y26.6502 
G01 X-2.4524 Y26.6502 
G01 X-2.2596 Y26.6197 
G01 X-2.0739 Y26.5593 
G01 X-1.9000 Y26.4707 
G01 X-1.7421 Y26.3560 
G01 X-1.6040 Y26.2179 
G01 X-1.4893 Y26.0600 
G01 X-1.4007 Y25.8861 
G01 X-1.3403 Y25.7004 
G01 X-1.3098 Y25.5076 
G01 X-1.3098 Y25.3124 
G01 X-1.3403 Y25.1196 
G01 X-1.4007 Y24.9339 
G01 X-1.4893 Y24.7600 
G01 X-1.6040 Y24.6021 
G01 X-1.7421 Y24.4640 
G01 X-1.9000 Y24.3493 
G01 X-2.0739 Y24.2607 
G01 X-2.2596 Y24.2003 
G01 X-2.4524 Y24.1698 
G01 X-2.6476 Y24.1698 
G01 X-2.8404 Y24.2003 
G01 X-3.0261 Y24.2607 
G01 X-3.2000 Y24.3493 
G01 X-3.3579 Y24.4640 
G01 X-3.4960 Y24.6021 
G01 X-3.5879 Y24.7286 
G01 X-4.9626 Y24.7286 
G01 X-5.0129 Y24.7186 
G01 X-6.4171 Y24.7186 
G01 X-6.5488 Y24.7448 
G01 X-6.6728 Y24.7962 
G01 X-6.7844 Y24.8707 
G01 X-9.1722 Y27.2586 
G01 X-11.9149 Y27.2586 
G01 X-12.2705 Y26.9030 
G01 X-13.1295 Y26.9030 
G01 X-13.7370 Y27.5105 
G00 Z2.0000 
G00 X-16.2770 Y27.5105 
G01 Z-0.1500 F100.00 
G01 X-16.2770 Y28.3695 F208.00 
G01 X-15.6695 Y28.9770 
G01 X-14.8105 Y28.9770 
G01 X-14.2030 Y28.3695 
G01 X-14.2030 Y27.5105 
G01 X-14.8105 Y26.9030 
G01 X-15.6695 Y26.9030 
G01 X-16.2770 Y27.5105 
G00 Z2.0000 
G00 X-13.7370 Y24.9705 
G01 Z-0.1500 F100.00 
G01 X-13.7370 Y25.8295 F208.00 
G01 X-13.1295 Y26.4370 
G01 X-12.2705 Y26.4370 
G01 X-11.9149 Y26.0814 
G01 X-8.8229 Y26.0814 
G01 X-8.6912 Y26.0552 
G01 X-8.5672 Y26.0038 
G01 X-8.4556 Y25.9293 
G01 X-8.3607 Y25.8344 
G01 X-6.0778 Y23.5514 
G01 X-3.5879 Y23.5514 
G01 X-3.4960 Y23.6779 
G01 X-3.3579 Y23.8160 
G01 X-3.2000 Y23.9307 
G01 X-3.0261 Y24.0193 
G01 X-2.8404 Y24.0797 
G01 X-2.6476 Y24.1102 
G01 X-2.4524 Y24.1102 
G01 X-2.2596 Y24.0797 
G01 X-2.0739 Y24.0193 
G01 X-1.9000 Y23.9307 
G01 X-1.7421 Y23.8160 
G01 X-1.6040 Y23.6779 
G01 X-1.4893 Y23.5200 
G01 X-1.4007 Y23.3461 
G01 X-1.3403 Y23.1604 
G01 X-1.3098 Y22.9676 
G01 X-1.3098 Y22.7724 
G01 X-1.3403 Y22.5796 
G01 X-1.4007 Y22.3939 
G01 X-1.4893 Y22.2200 
G01 X-1.6040 Y22.0621 
G01 X-1.7421 Y21.9240 
G01 X-1.9000 Y21.8093 
G01 X-2.0739 Y21.7207 
G01 X-2.2596 Y21.6603 
G01 X-2.4524 Y21.6298 
G01 X-2.6476 Y21.6298 
G01 X-2.8404 Y21.6603 
G01 X-3.0261 Y21.7207 
G01 X-3.2000 Y21.8093 
G01 X-3.3579 Y21.9240 
G01 X-3.4960 Y22.0621 
G01 X-3.5879 Y22.1886 
G01 X-6.2326 Y22.1886 
G01 X-6.2829 Y22.1786 
G01 X-6.4171 Y22.1786 
G01 X-6.5488 Y22.2048 
G01 X-6.6728 Y22.2562 
G01 X-6.7844 Y22.3307 
G01 X-9.1722 Y24.7186 
G01 X-11.9149 Y24.7186 
G01 X-12.2705 Y24.3630 
G01 X-13.1295 Y24.3630 
G01 X-13.7370 Y24.9705 
G00 Z2.0000 
G00 X-15.6695 Y26.4370 
G01 Z-0.1500 F100.00 
G01 X-14.8105 Y26.4370 F208.00 
G01 X-14.2030 Y25.8295 
G01 X-14.2030 Y24.9705 
G01 X-14.8105 Y24.3630 
G01 X-15.6695 Y24.3630 
G01 X-16.0251 Y24.7186 
G01 X-19.1171 Y24.7186 
G01 X-19.2488 Y24.7448 
G01 X-19.3728 Y24.7962 
G01 X-19.4844 Y24.8707 
G01 X-21.8822 Y27.2686 
G01 X-24.1621 Y27.2686 
G01 X-24.2540 Y27.1421 
G01 X-24.3921 Y27.0040 
G01 X-24.5500 Y26.8893 
G01 X-24.7239 Y26.8007 
G01 X-24.9096 Y26.7403 
G01 X-25.1024 Y26.7098 
G01 X-25.2976 Y26.7098 
G01 X-25.4904 Y26.7403 
G01 X-25.6761 Y26.8007 
G01 X-25.8500 Y26.8893 
G01 X-26.0079 Y27.0040 
G01 X-26.1460 Y27.1421 
G01 X-26.2379 Y27.2686 
G01 X-26.3840 Y27.2686 
G01 X-26.3870 Y27.2644 
G01 X-26.5024 Y27.1490 
G01 X-26.6345 Y27.0531 
G01 X-26.7799 Y26.9790 
G01 X-26.9352 Y26.9285 
G01 X-27.0964 Y26.9030 
G01 X-28.7836 Y26.9030 
G01 X-28.9448 Y26.9285 
G01 X-29.1001 Y26.9790 
G01 X-29.2455 Y27.0531 
G01 X-29.3776 Y27.1490 
G01 X-29.4930 Y27.2644 
G01 X-29.5889 Y27.3965 
G01 X-29.6630 Y27.5419 
G01 X-29.7135 Y27.6972 
G01 X-29.7390 Y27.8584 
G01 X-29.7390 Y28.0216 
G01 X-29.7135 Y28.1828 
G01 X-29.6630 Y28.3381 
G01 X-29.5889 Y28.4835 
G01 X-29.4930 Y28.6156 
G01 X-29.3776 Y28.7310 
G01 X-29.2455 Y28.8269 
G01 X-29.1001 Y28.9010 
G01 X-28.9448 Y28.9515 
G01 X-28.7836 Y28.9770 
G01 X-27.0964 Y28.9770 
G01 X-26.9352 Y28.9515 
G01 X-26.7799 Y28.9010 
G01 X-26.6345 Y28.8269 
G01 X-26.5024 Y28.7310 
G01 X-26.4029 Y28.6314 
G01 X-26.2379 Y28.6314 
G01 X-26.1460 Y28.7579 
G01 X-26.0079 Y28.8960 
G01 X-25.8500 Y29.0107 
G01 X-25.6761 Y29.0993 
G01 X-25.4904 Y29.1597 
G01 X-25.2976 Y29.1902 
G01 X-25.1024 Y29.1902 
G01 X-24.9096 Y29.1597 
G01 X-24.7239 Y29.0993 
G01 X-24.5500 Y29.0107 
G01 X-24.3921 Y28.8960 
G01 X-24.2540 Y28.7579 
G01 X-24.1621 Y28.6314 
G01 X-21.5329 Y28.6314 
G01 X-21.4012 Y28.6052 
G01 X-21.2772 Y28.5538 
G01 X-21.1656 Y28.4793 
G01 X-21.0707 Y28.3844 
G01 X-18.7678 Y26.0814 
G01 X-16.0251 Y26.0814 
G01 X-15.6695 Y26.4370 
G00 Z2.0000 
G00 X-13.7370 Y22.4305 
G01 Z-0.1500 F100.00 
G01 X-13.7370 Y23.2895 F208.00 
G01 X-13.1295 Y23.8970 
G01 X-12.2705 Y23.8970 
G01 X-11.9149 Y23.5414 
G01 X-10.0929 Y23.5414 
G01 X-9.9612 Y23.5152 
G01 X-9.8372 Y23.4638 
G01 X-9.7256 Y23.3893 
G01 X-9.6307 Y23.2944 
G01 X-7.3478 Y21.0114 
G01 X-3.5879 Y21.0114 
G01 X-3.4960 Y21.1379 
G01 X-3.3579 Y21.2760 
G01 X-3.2000 Y21.3907 
G01 X-3.0261 Y21.4793 
G01 X-2.8404 Y21.5397 
G01 X-2.6476 Y21.5702 
G01 X-2.4524 Y21.5702 
G01 X-2.2596 Y21.5397 
G01 X-2.0739 Y21.4793 
G01 X-1.9000 Y21.3907 
G01 X-1.7421 Y21.2760 
G01 X-1.6040 Y21.1379 
G01 X-1.4893 Y20.9800 
G01 X-1.4007 Y20.8061 
G01 X-1.3403 Y20.6204 
G01 X-1.3098 Y20.4276 
G01 X-1.3098 Y20.2324 
G01 X-1.3403 Y20.0396 
G01 X-1.4007 Y19.8539 
G01 X-1.4893 Y19.6800 
G01 X-1.6040 Y19.5221 
G01 X-1.7421 Y19.3840 
G01 X-1.9000 Y19.2693 
G01 X-2.0739 Y19.1807 
G01 X-2.2596 Y19.1203 
G01 X-2.4524 Y19.0898 
G01 X-2.6476 Y19.0898 
G01 X-2.8404 Y19.1203 
G01 X-3.0261 Y19.1807 
G01 X-3.2000 Y19.2693 
G01 X-3.3579 Y19.3840 
G01 X-3.4960 Y19.5221 
G01 X-3.5879 Y19.6486 
G01 X-7.5026 Y19.6486 
G01 X-7.5529 Y19.6386 
G01 X-7.6871 Y19.6386 
G01 X-7.8188 Y19.6648 
G01 X-7.9428 Y19.7162 
G01 X-8.0544 Y19.7907 
G01 X-10.4422 Y22.1786 
G01 X-11.9149 Y22.1786 
G01 X-12.2705 Y21.8230 
G01 X-13.1295 Y21.8230 
G01 X-13.7370 Y22.4305 
G00 Z2.0000 
G00 X-15.6695 Y23.8970 
G01 Z-0.1500 F100.00 
G01 X-14.8105 Y23.8970 F208.00 
G01 X-14.2030 Y23.2895 
G01 X-14.2030 Y22.4305 
G01 X-14.8105 Y21.8230 
G01 X-15.6695 Y21.8230 
G01 X-16.0251 Y22.1786 
G01 X-24.1694 Y22.1786 
G01 X-24.2540 Y22.0621 
G01 X-24.3921 Y21.9240 
G01 X-24.5500 Y21.8093 
G01 X-24.7239 Y21.7207 
G01 X-24.9096 Y21.6603 
G01 X-25.1024 Y21.6298 
G01 X-25.2976 Y21.6298 
G01 X-25.4904 Y21.6603 
G01 X-25.6761 Y21.7207 
G01 X-25.8500 Y21.8093 
G01 X-26.0079 Y21.9240 
G01 X-26.1460 Y22.0621 
G01 X-26.2379 Y22.1886 
G01 X-26.3840 Y22.1886 
G01 X-26.3870 Y22.1844 
G01 X-26.5024 Y22.0690 
G01 X-26.6345 Y21.9731 
G01 X-26.7799 Y21.8990 
G01 X-26.9352 Y21.8485 
G01 X-27.0964 Y21.8230 
G01 X-28.7836 Y21.8230 
G01 X-28.9448 Y21.8485 
G01 X-29.1001 Y21.8990 
G01 X-29.2455 Y21.9731 
G01 X-29.3776 Y22.0690 
G01 X-29.4930 Y22.1844 
G01 X-29.5889 Y22.3165 
G01 X-29.6630 Y22.4619 
G01 X-29.7135 Y22.6172 
G01 X-29.7390 Y22.7784 
G01 X-29.7390 Y22.9416 
G01 X-29.7135 Y23.1028 
G01 X-29.6630 Y23.2581 
G01 X-29.5889 Y23.4035 
G01 X-29.4930 Y23.5356 
G01 X-29.3776 Y23.6510 
G01 X-29.2455 Y23.7469 
G01 X-29.1001 Y23.8210 
G01 X-28.9448 Y23.8715 
G01 X-28.7836 Y23.8970 
G01 X-27.0964 Y23.8970 
G01 X-26.9352 Y23.8715 
G01 X-26.7799 Y23.8210 
G01 X-26.6345 Y23.7469 
G01 X-26.5024 Y23.6510 
G01 X-26.4029 Y23.5514 
G01 X-26.2379 Y23.5514 
G01 X-26.1460 Y23.6779 
G01 X-26.0079 Y23.8160 
G01 X-25.8500 Y23.9307 
G01 X-25.6761 Y24.0193 
G01 X-25.4904 Y24.0797 
G01 X-25.2976 Y24.1102 
G01 X-25.1024 Y24.1102 
G01 X-24.9096 Y24.0797 
G01 X-24.7239 Y24.0193 
G01 X-24.5500 Y23.9307 
G01 X-24.3921 Y23.8160 
G01 X-24.2540 Y23.6779 
G01 X-24.1548 Y23.5414 
G01 X-22.9874 Y23.5414 
G01 X-22.9371 Y23.5514 
G01 X-22.8029 Y23.5514 
G01 X-22.7526 Y23.5414 
G01 X-16.0251 Y23.5414 
G01 X-15.6695 Y23.8970 
G00 Z2.0000 
G00 X-13.7370 Y19.8905 
G01 Z-0.1500 F100.00 
G01 X-13.7370 Y20.7495 F208.00 
G01 X-13.1295 Y21.3570 
G01 X-12.2705 Y21.3570 
G01 X-11.9149 Y21.0014 
G01 X-11.3629 Y21.0014 
G01 X-11.2312 Y20.9752 
G01 X-11.1072 Y20.9238 
G01 X-10.9956 Y20.8493 
G01 X-10.9007 Y20.7544 
G01 X-8.6078 Y18.4614 
G01 X-7.7274 Y18.4614 
G01 X-7.6771 Y18.4714 
G01 X-3.5879 Y18.4714 
G01 X-3.4960 Y18.5979 
G01 X-3.3579 Y18.7360 
G01 X-3.2000 Y18.8507 
G01 X-3.0261 Y18.9393 
G01 X-2.8404 Y18.9997 
G01 X-2.6476 Y19.0302 
G01 X-2.4524 Y19.0302 
G01 X-2.2596 Y18.9997 
G01 X-2.0739 Y18.9393 
G01 X-1.9000 Y18.8507 
G01 X-1.7421 Y18.7360 
G01 X-1.6040 Y18.5979 
G01 X-1.4893 Y18.4400 
G01 X-1.4007 Y18.2661 
G01 X-1.3403 Y18.0804 
G01 X-1.3098 Y17.8876 
G01 X-1.3098 Y17.6924 
G01 X-1.3403 Y17.4996 
G01 X-1.4007 Y17.3139 
G01 X-1.4893 Y17.1400 
G01 X-1.6040 Y16.9821 
G01 X-1.7421 Y16.8440 
G01 X-1.9000 Y16.7293 
G01 X-2.0739 Y16.6407 
G01 X-2.2596 Y16.5803 
G01 X-2.4524 Y16.5498 
G01 X-2.6476 Y16.5498 
G01 X-2.8404 Y16.5803 
G01 X-3.0261 Y16.6407 
G01 X-3.2000 Y16.7293 
G01 X-3.3579 Y16.8440 
G01 X-3.4960 Y16.9821 
G01 X-3.5879 Y17.1086 
G01 X-7.5026 Y17.1086 
G01 X-7.5529 Y17.0986 
G01 X-8.9571 Y17.0986 
G01 X-9.0888 Y17.1248 
G01 X-9.2128 Y17.1761 
G01 X-9.3244 Y17.2507 
G01 X-11.7122 Y19.6386 
G01 X-11.9149 Y19.6386 
G01 X-12.2705 Y19.2830 
G01 X-13.1295 Y19.2830 
G01 X-13.7370 Y19.8905 
G00 Z2.0000 
G00 X-15.6695 Y21.3570 
G01 Z-0.1500 F100.00 
G01 X-14.8105 Y21.3570 F208.00 
G01 X-14.2030 Y20.7495 
G01 X-14.2030 Y19.8905 
G01 X-14.8105 Y19.2830 
G01 X-15.6695 Y19.2830 
G01 X-16.0251 Y19.6386 
G01 X-24.1694 Y19.6386 
G01 X-24.2540 Y19.5221 
G01 X-24.3921 Y19.3840 
G01 X-24.5500 Y19.2693 
G01 X-24.7239 Y19.1807 
G01 X-24.9096 Y19.1203 
G01 X-25.1024 Y19.0898 
G01 X-25.2976 Y19.0898 
G01 X-25.4904 Y19.1203 
G01 X-25.6761 Y19.1807 
G01 X-25.8500 Y19.2693 
G01 X-26.0079 Y19.3840 
G01 X-26.1460 Y19.5221 
G01 X-26.2379 Y19.6486 
G01 X-26.3840 Y19.6486 
G01 X-26.3870 Y19.6444 
G01 X-26.5024 Y19.5290 
G01 X-26.6345 Y19.4331 
G01 X-26.7799 Y19.3590 
G01 X-26.9352 Y19.3085 
G01 X-27.0964 Y19.2830 
G01 X-28.7836 Y19.2830 
G01 X-28.9448 Y19.3085 
G01 X-29.1001 Y19.3590 
G01 X-29.2455 Y19.4331 
G01 X-29.3776 Y19.5290 
G01 X-29.4930 Y19.6444 
G01 X-29.5889 Y19.7765 
G01 X-29.6630 Y19.9219 
G01 X-29.7135 Y20.0772 
G01 X-29.7390 Y20.2384 
G01 X-29.7390 Y20.4016 
G01 X-29.7135 Y20.5628 
G01 X-29.6630 Y20.7181 
G01 X-29.5889 Y20.8635 
G01 X-29.4930 Y20.9956 
G01 X-29.3776 Y21.1110 
G01 X-29.2455 Y21.2069 
G01 X-29.1001 Y21.2810 
G01 X-28.9448 Y21.3315 
G01 X-28.7836 Y21.3570 
G01 X-27.0964 Y21.3570 
G01 X-26.9352 Y21.3315 
G01 X-26.7799 Y21.2810 
G01 X-26.6345 Y21.2069 
G01 X-26.5024 Y21.1110 
G01 X-26.4029 Y21.0114 
G01 X-26.2379 Y21.0114 
G01 X-26.1460 Y21.1379 
G01 X-26.0079 Y21.2760 
G01 X-25.8500 Y21.3907 
G01 X-25.6761 Y21.4793 
G01 X-25.4904 Y21.5397 
G01 X-25.2976 Y21.5702 
G01 X-25.1024 Y21.5702 
G01 X-24.9096 Y21.5397 
G01 X-24.7239 Y21.4793 
G01 X-24.5500 Y21.3907 
G01 X-24.3921 Y21.2760 
G01 X-24.2540 Y21.1379 
G01 X-24.1548 Y21.0014 
G01 X-21.7174 Y21.0014 
G01 X-21.6671 Y21.0114 
G01 X-21.5329 Y21.0114 
G01 X-21.4826 Y21.0014 
G01 X-16.0251 Y21.0014 
G01 X-15.6695 Y21.3570 
G00 Z2.0000 
G00 X-13.7370 Y17.3505 
G01 Z-0.1500 F100.00 
G01 X-13.7370 Y18.2095 F208.00 
G01 X-13.1295 Y18.8170 
G01 X-12.2705 Y18.8170 
G01 X-11.6630 Y18.2095 
G01 X-11.6630 Y17.3505 
G01 X-12.0186 Y16.9949 
G01 X-12.0186 Y16.7922 
G01 X-8.6178 Y13.3914 
G01 X-3.5879 Y13.3914 
G01 X-3.4960 Y13.5179 
G01 X-3.3579 Y13.6560 
G01 X-3.2000 Y13.7707 
G01 X-3.0261 Y13.8593 
G01 X-2.8404 Y13.9197 
G01 X-2.6476 Y13.9502 
G01 X-2.4524 Y13.9502 
G01 X-2.2596 Y13.9197 
G01 X-2.0739 Y13.8593 
G01 X-1.9000 Y13.7707 
G01 X-1.7421 Y13.6560 
G01 X-1.6040 Y13.5179 
G01 X-1.4893 Y13.3600 
G01 X-1.4007 Y13.1861 
G01 X-1.3403 Y13.0004 
G01 X-1.3098 Y12.8076 
G01 X-1.3098 Y12.6124 
G01 X-1.3403 Y12.4196 
G01 X-1.4007 Y12.2339 
G01 X-1.4893 Y12.0600 
G01 X-1.6040 Y11.9021 
G01 X-1.7421 Y11.7640 
G01 X-1.9000 Y11.6493 
G01 X-2.0739 Y11.5607 
G01 X-2.2596 Y11.5003 
G01 X-2.4524 Y11.4698 
G01 X-2.6476 Y11.4698 
G01 X-2.8404 Y11.5003 
G01 X-3.0261 Y11.5607 
G01 X-3.2000 Y11.6493 
G01 X-3.3579 Y11.7640 
G01 X-3.4960 Y11.9021 
G01 X-3.5879 Y12.0286 
G01 X-8.9671 Y12.0286 
G01 X-9.0988 Y12.0548 
G01 X-9.2228 Y12.1062 
G01 X-9.3344 Y12.1807 
G01 X-13.2293 Y16.0756 
G01 X-13.3038 Y16.1872 
G01 X-13.3552 Y16.3112 
G01 X-13.3814 Y16.4429 
G01 X-13.3814 Y16.9949 
G01 X-13.7370 Y17.3505 
G00 Z2.0000 
G00 X-16.2770 Y17.3505 
G01 Z-0.1500 F100.00 
G01 X-16.2770 Y18.2095 F208.00 
G01 X-15.6695 Y18.8170 
G01 X-14.8105 Y18.8170 
G01 X-14.2030 Y18.2095 
G01 X-14.2030 Y17.3505 
G01 X-14.8105 Y16.7430 
G01 X-15.6695 Y16.7430 
G01 X-16.2770 Y17.3505 
G00 Z2.0000 
G00 X-3.7902 Y48.1724 
G01 Z-0.1500 F100.00 
G01 X-3.7902 Y48.3676 F208.00 
G01 X-3.7597 Y48.5604 
G01 X-3.6993 Y48.7461 
G01 X-3.6107 Y48.9200 
G01 X-3.4960 Y49.0779 
G01 X-3.3579 Y49.2160 
G01 X-3.2000 Y49.3307 
G01 X-3.0261 Y49.4193 
G01 X-2.8404 Y49.4797 
G01 X-2.6476 Y49.5102 
G01 X-2.4524 Y49.5102 
G01 X-2.2596 Y49.4797 
G01 X-2.0739 Y49.4193 
G01 X-1.9000 Y49.3307 
G01 X-1.7421 Y49.2160 
G01 X-1.6040 Y49.0779 
G01 X-1.4893 Y48.9200 
G01 X-1.4007 Y48.7461 
G01 X-1.3403 Y48.5604 
G01 X-1.3098 Y48.3676 
G01 X-1.3098 Y48.1724 
G01 X-1.3403 Y47.9796 
G01 X-1.4007 Y47.7939 
G01 X-1.4893 Y47.6200 
G01 X-1.6040 Y47.4621 
G01 X-1.7421 Y47.3240 
G01 X-1.9000 Y47.2093 
G01 X-2.0739 Y47.1207 
G01 X-2.2596 Y47.0603 
G01 X-2.4524 Y47.0298 
G01 X-2.6476 Y47.0298 
G01 X-2.8404 Y47.0603 
G01 X-3.0261 Y47.1207 
G01 X-3.2000 Y47.2093 
G01 X-3.3579 Y47.3240 
G01 X-3.4960 Y47.4621 
G01 X-3.6107 Y47.6200 
G01 X-3.6993 Y47.7939 
G01 X-3.7597 Y47.9796 
G01 X-3.7902 Y48.1724 
G00 Z2.0000 
G00 X-3.7902 Y45.6324 
G01 Z-0.1500 F100.00 
G01 X-3.7902 Y45.8276 F208.00 
G01 X-3.7597 Y46.0204 
G01 X-3.6993 Y46.2061 
G01 X-3.6107 Y46.3800 
G01 X-3.4960 Y46.5379 
G01 X-3.3579 Y46.6760 
G01 X-3.2000 Y46.7907 
G01 X-3.0261 Y46.8793 
G01 X-2.8404 Y46.9397 
G01 X-2.6476 Y46.9702 
G01 X-2.4524 Y46.9702 
G01 X-2.2596 Y46.9397 
G01 X-2.0739 Y46.8793 
G01 X-1.9000 Y46.7907 
G01 X-1.7421 Y46.6760 
G01 X-1.6040 Y46.5379 
G01 X-1.4893 Y46.3800 
G01 X-1.4007 Y46.2061 
G01 X-1.3403 Y46.0204 
G01 X-1.3098 Y45.8276 
G01 X-1.3098 Y45.6324 
G01 X-1.3403 Y45.4396 
G01 X-1.4007 Y45.2539 
G01 X-1.4893 Y45.0800 
G01 X-1.6040 Y44.9221 
G01 X-1.7421 Y44.7840 
G01 X-1.9000 Y44.6693 
G01 X-2.0739 Y44.5807 
G01 X-2.2596 Y44.5203 
G01 X-2.4524 Y44.4898 
G01 X-2.6476 Y44.4898 
G01 X-2.8404 Y44.5203 
G01 X-3.0261 Y44.5807 
G01 X-3.2000 Y44.6693 
G01 X-3.3579 Y44.7840 
G01 X-3.4960 Y44.9221 
G01 X-3.6107 Y45.0800 
G01 X-3.6993 Y45.2539 
G01 X-3.7597 Y45.4396 
G01 X-3.7902 Y45.6324 
G00 Z2.0000 
G00 X-3.7902 Y43.0924 
G01 Z-0.1500 F100.00 
G01 X-3.7902 Y43.2876 F208.00 
G01 X-3.7597 Y43.4804 
G01 X-3.6993 Y43.6661 
G01 X-3.6107 Y43.8400 
G01 X-3.4960 Y43.9979 
G01 X-3.3579 Y44.1360 
G01 X-3.2000 Y44.2507 
G01 X-3.0261 Y44.3393 
G01 X-2.8404 Y44.3997 
G01 X-2.6476 Y44.4302 
G01 X-2.4524 Y44.4302 
G01 X-2.2596 Y44.3997 
G01 X-2.0739 Y44.3393 
G01 X-1.9000 Y44.2507 
G01 X-1.7421 Y44.1360 
G01 X-1.6040 Y43.9979 
G01 X-1.4893 Y43.8400 
G01 X-1.4007 Y43.6661 
G01 X-1.3403 Y43.4804 
G01 X-1.3098 Y43.2876 
G01 X-1.3098 Y43.0924 
G01 X-1.3403 Y42.8996 
G01 X-1.4007 Y42.7139 
G01 X-1.4893 Y42.5400 
G01 X-1.6040 Y42.3821 
G01 X-1.7421 Y42.2440 
G01 X-1.9000 Y42.1293 
G01 X-2.0739 Y42.0407 
G01 X-2.2596 Y41.9803 
G01 X-2.4524 Y41.9498 
G01 X-2.6476 Y41.9498 
G01 X-2.8404 Y41.9803 
G01 X-3.0261 Y42.0407 
G01 X-3.2000 Y42.1293 
G01 X-3.3579 Y42.2440 
G01 X-3.4960 Y42.3821 
G01 X-3.6107 Y42.5400 
G01 X-3.6993 Y42.7139 
G01 X-3.7597 Y42.8996 
G01 X-3.7902 Y43.0924 
G00 Z2.0000 
G00 X-3.7902 Y40.5524 
G01 Z-0.1500 F100.00 
G01 X-3.7902 Y40.7476 F208.00 
G01 X-3.7597 Y40.9404 
G01 X-3.6993 Y41.1261 
G01 X-3.6107 Y41.3000 
G01 X-3.4960 Y41.4579 
G01 X-3.3579 Y41.5960 
G01 X-3.2000 Y41.7107 
G01 X-3.0261 Y41.7993 
G01 X-2.8404 Y41.8597 
G01 X-2.6476 Y41.8902 
G01 X-2.4524 Y41.8902 
G01 X-2.2596 Y41.8597 
G01 X-2.0739 Y41.7993 
G01 X-1.9000 Y41.7107 
G01 X-1.7421 Y41.5960 
G01 X-1.6040 Y41.4579 
G01 X-1.4893 Y41.3000 
G01 X-1.4007 Y41.1261 
G01 X-1.3403 Y40.9404 
G01 X-1.3098 Y40.7476 
G01 X-1.3098 Y40.5524 
G01 X-1.3403 Y40.3596 
G01 X-1.4007 Y40.1739 
G01 X-1.4893 Y40.0000 
G01 X-1.6040 Y39.8421 
G01 X-1.7421 Y39.7040 
G01 X-1.9000 Y39.5893 
G01 X-2.0739 Y39.5007 
G01 X-2.2596 Y39.4403 
G01 X-2.4524 Y39.4098 
G01 X-2.6476 Y39.4098 
G01 X-2.8404 Y39.4403 
G01 X-3.0261 Y39.5007 
G01 X-3.2000 Y39.5893 
G01 X-3.3579 Y39.7040 
G01 X-3.4960 Y39.8421 
G01 X-3.6107 Y40.0000 
G01 X-3.6993 Y40.1739 
G01 X-3.7597 Y40.3596 
G01 X-3.7902 Y40.5524 
G00 Z2.0000 
G00 X-3.7902 Y38.0124 
G01 Z-0.1500 F100.00 
G01 X-3.7902 Y38.2076 F208.00 
G01 X-3.7597 Y38.4004 
G01 X-3.6993 Y38.5861 
G01 X-3.6107 Y38.7600 
G01 X-3.4960 Y38.9179 
G01 X-3.3579 Y39.0560 
G01 X-3.2000 Y39.1707 
G01 X-3.0261 Y39.2593 
G01 X-2.8404 Y39.3197 
G01 X-2.6476 Y39.3502 
G01 X-2.4524 Y39.3502 
G01 X-2.2596 Y39.3197 
G01 X-2.0739 Y39.2593 
G01 X-1.9000 Y39.1707 
G01 X-1.7421 Y39.0560 
G01 X-1.6040 Y38.9179 
G01 X-1.4893 Y38.7600 
G01 X-1.4007 Y38.5861 
G01 X-1.3403 Y38.4004 
G01 X-1.3098 Y38.2076 
G01 X-1.3098 Y38.0124 
G01 X-1.3403 Y37.8196 
G01 X-1.4007 Y37.6339 
G01 X-1.4893 Y37.4600 
G01 X-1.6040 Y37.3021 
G01 X-1.7421 Y37.1640 
G01 X-1.9000 Y37.0493 
G01 X-2.0739 Y36.9607 
G01 X-2.2596 Y36.9003 
G01 X-2.4524 Y36.8698 
G01 X-2.6476 Y36.8698 
G01 X-2.8404 Y36.9003 
G01 X-3.0261 Y36.9607 
G01 X-3.2000 Y37.0493 
G01 X-3.3579 Y37.1640 
G01 X-3.4960 Y37.3021 
G01 X-3.6107 Y37.4600 
G01 X-3.6993 Y37.6339 
G01 X-3.7597 Y37.8196 
G01 X-3.7902 Y38.0124 
G00 Z2.0000 
G00 X-3.7902 Y35.4724 
G01 Z-0.1500 F100.00 
G01 X-3.7902 Y35.6676 F208.00 
G01 X-3.7597 Y35.8604 
G01 X-3.6993 Y36.0461 
G01 X-3.6107 Y36.2200 
G01 X-3.4960 Y36.3779 
G01 X-3.3579 Y36.5160 
G01 X-3.2000 Y36.6307 
G01 X-3.0261 Y36.7193 
G01 X-2.8404 Y36.7797 
G01 X-2.6476 Y36.8102 
G01 X-2.4524 Y36.8102 
G01 X-2.2596 Y36.7797 
G01 X-2.0739 Y36.7193 
G01 X-1.9000 Y36.6307 
G01 X-1.7421 Y36.5160 
G01 X-1.6040 Y36.3779 
G01 X-1.4893 Y36.2200 
G01 X-1.4007 Y36.0461 
G01 X-1.3403 Y35.8604 
G01 X-1.3098 Y35.6676 
G01 X-1.3098 Y35.4724 
G01 X-1.3403 Y35.2796 
G01 X-1.4007 Y35.0939 
G01 X-1.4893 Y34.9200 
G01 X-1.6040 Y34.7621 
G01 X-1.7421 Y34.6240 
G01 X-1.9000 Y34.5093 
G01 X-2.0739 Y34.4207 
G01 X-2.2596 Y34.3603 
G01 X-2.4524 Y34.3298 
G01 X-2.6476 Y34.3298 
G01 X-2.8404 Y34.3603 
G01 X-2.9534 Y34.3971 
G01 X-2.8021 Y34.2457 
G01 X-2.6476 Y34.2702 
G01 X-2.4524 Y34.2702 
G01 X-2.2596 Y34.2397 
G01 X-2.0739 Y34.1793 
G01 X-1.9000 Y34.0907 
G01 X-1.7421 Y33.9760 
G01 X-1.6040 Y33.8379 
G01 X-1.4893 Y33.6800 
G01 X-1.4007 Y33.5061 
G01 X-1.3403 Y33.3204 
G01 X-1.3098 Y33.1276 
G01 X-1.3098 Y32.9324 
G01 X-1.3403 Y32.7396 
G01 X-1.4007 Y32.5539 
G01 X-1.4893 Y32.3800 
G01 X-1.6040 Y32.2221 
G01 X-1.7421 Y32.0840 
G01 X-1.9000 Y31.9693 
G01 X-2.0739 Y31.8807 
G01 X-2.2596 Y31.8203 
G01 X-2.4524 Y31.7898 
G01 X-2.6476 Y31.7898 
G01 X-2.8404 Y31.8203 
G01 X-3.0261 Y31.8807 
G01 X-3.2000 Y31.9693 
G01 X-3.3579 Y32.0840 
G01 X-3.4960 Y32.2221 
G01 X-3.6107 Y32.3800 
G01 X-3.6993 Y32.5539 
G01 X-3.7597 Y32.7396 
G01 X-3.7902 Y32.9324 
G01 X-3.7902 Y33.1276 
G01 X-3.7657 Y33.2821 
G01 X-5.3622 Y34.8786 
G01 X-11.9149 Y34.8786 
G01 X-12.2705 Y34.5230 
G01 X-13.1295 Y34.5230 
G01 X-13.7370 Y35.1305 
G01 X-13.7370 Y35.9895 
G01 X-13.1295 Y36.5970 
G01 X-12.2705 Y36.5970 
G01 X-11.9149 Y36.2414 
G01 X-5.0129 Y36.2414 
G01 X-4.8812 Y36.2152 
G01 X-4.7572 Y36.1638 
G01 X-4.6456 Y36.0893 
G01 X-4.5507 Y35.9944 
G01 X-3.7229 Y35.1666 
G01 X-3.7597 Y35.2796 
G01 X-3.7902 Y35.4724 
G00 Z2.0000 
G00 X-3.4960 Y31.2979 
G01 Z-0.1500 F100.00 
G01 X-3.3579 Y31.4360 F208.00 
G01 X-3.2000 Y31.5507 
G01 X-3.0261 Y31.6393 
G01 X-2.8404 Y31.6997 
G01 X-2.6476 Y31.7302 
G01 X-2.4524 Y31.7302 
G01 X-2.2596 Y31.6997 
G01 X-2.0739 Y31.6393 
G01 X-1.9000 Y31.5507 
G01 X-1.7421 Y31.4360 
G01 X-1.6040 Y31.2979 
G01 X-1.4893 Y31.1400 
G01 X-1.4007 Y30.9661 
G01 X-1.3403 Y30.7804 
G01 X-1.3098 Y30.5876 
G01 X-1.3098 Y30.3924 
G01 X-1.3403 Y30.1996 
G01 X-1.4007 Y30.0139 
G01 X-1.4893 Y29.8400 
G01 X-1.6040 Y29.6821 
G01 X-1.7421 Y29.5440 
G01 X-1.9000 Y29.4293 
G01 X-2.0739 Y29.3407 
G01 X-2.2596 Y29.2803 
G01 X-2.4524 Y29.2498 
G01 X-2.6476 Y29.2498 
G01 X-2.8404 Y29.2803 
G01 X-3.0261 Y29.3407 
G01 X-3.2000 Y29.4293 
G01 X-3.3579 Y29.5440 
G01 X-3.4960 Y29.6821 
G01 X-3.5879 Y29.8086 
G01 X-3.6926 Y29.8086 
G01 X-3.7429 Y29.7986 
G01 X-3.8771 Y29.7986 
G01 X-4.0088 Y29.8248 
G01 X-4.1328 Y29.8762 
G01 X-4.2444 Y29.9507 
G01 X-6.6322 Y32.3386 
G01 X-11.9149 Y32.3386 
G01 X-12.2705 Y31.9830 
G01 X-13.1295 Y31.9830 
G01 X-13.7370 Y32.5905 
G01 X-13.7370 Y33.4495 
G01 X-13.1295 Y34.0570 
G01 X-12.2705 Y34.0570 
G01 X-11.9149 Y33.7014 
G01 X-6.2829 Y33.7014 
G01 X-6.1512 Y33.6752 
G01 X-6.0272 Y33.6238 
G01 X-5.9156 Y33.5493 
G01 X-5.8207 Y33.4544 
G01 X-3.5668 Y31.2004 
G01 X-3.4960 Y31.2979 
G00 Z2.0000 
G00 X-3.4960 Y28.7579 
G01 Z-0.1500 F100.00 
G01 X-3.3579 Y28.8960 F208.00 
G01 X-3.2000 Y29.0107 
G01 X-3.0261 Y29.0993 
G01 X-2.8404 Y29.1597 
G01 X-2.6476 Y29.1902 
G01 X-2.4524 Y29.1902 
G01 X-2.2596 Y29.1597 
G01 X-2.0739 Y29.0993 
G01 X-1.9000 Y29.0107 
G01 X-1.7421 Y28.8960 
G01 X-1.6040 Y28.7579 
G01 X-1.4893 Y28.6000 
G01 X-1.4007 Y28.4261 
G01 X-1.3403 Y28.2404 
G01 X-1.3098 Y28.0476 
G01 X-1.3098 Y27.8524 
G01 X-1.3403 Y27.6596 
G01 X-1.4007 Y27.4739 
G01 X-1.4893 Y27.3000 
G01 X-1.6040 Y27.1421 
G01 X-1.7421 Y27.0040 
G01 X-1.9000 Y26.8893 
G01 X-2.0739 Y26.8007 
G01 X-2.2596 Y26.7403 
G01 X-2.4524 Y26.7098 
G01 X-2.6476 Y26.7098 
G01 X-2.8404 Y26.7403 
G01 X-3.0261 Y26.8007 
G01 X-3.2000 Y26.8893 
G01 X-3.3579 Y27.0040 
G01 X-3.4960 Y27.1421 
G01 X-3.5879 Y27.2686 
G01 X-4.9626 Y27.2686 
G01 X-5.0129 Y27.2586 
G01 X-5.1471 Y27.2586 
G01 X-5.2788 Y27.2848 
G01 X-5.4028 Y27.3361 
G01 X-5.5144 Y27.4107 
G01 X-7.9022 Y29.7986 
G01 X-11.9149 Y29.7986 
G01 X-12.2705 Y29.4430 
G01 X-13.1295 Y29.4430 
G01 X-13.7370 Y30.0505 
G01 X-13.7370 Y30.9095 
G01 X-13.1295 Y31.5170 
G01 X-12.2705 Y31.5170 
G01 X-11.9149 Y31.1614 
G01 X-7.5529 Y31.1614 
G01 X-7.4212 Y31.1352 
G01 X-7.2972 Y31.0838 
G01 X-7.1856 Y31.0093 
G01 X-4.8078 Y28.6314 
G01 X-3.5879 Y28.6314 
G01 X-3.4960 Y28.7579 
G00 Z2.0000 
G00 X-3.7902 Y15.1524 
G01 Z-0.1500 F100.00 
G01 X-3.7902 Y15.3476 F208.00 
G01 X-3.7597 Y15.5404 
G01 X-3.6993 Y15.7261 
G01 X-3.6107 Y15.9000 
G01 X-3.4960 Y16.0579 
G01 X-3.3579 Y16.1960 
G01 X-3.2000 Y16.3107 
G01 X-3.0261 Y16.3993 
G01 X-2.8404 Y16.4597 
G01 X-2.6476 Y16.4902 
G01 X-2.4524 Y16.4902 
G01 X-2.2596 Y16.4597 
G01 X-2.0739 Y16.3993 
G01 X-1.9000 Y16.3107 
G01 X-1.7421 Y16.1960 
G01 X-1.6040 Y16.0579 
G01 X-1.4893 Y15.9000 
G01 X-1.4007 Y15.7261 
G01 X-1.3403 Y15.5404 
G01 X-1.3098 Y15.3476 
G01 X-1.3098 Y15.1524 
G01 X-1.3403 Y14.9596 
G01 X-1.4007 Y14.7739 
G01 X-1.4893 Y14.6000 
G01 X-1.6040 Y14.4421 
G01 X-1.7421 Y14.3040 
G01 X-1.9000 Y14.1893 
G01 X-2.0739 Y14.1007 
G01 X-2.2596 Y14.0403 
G01 X-2.4524 Y14.0098 
G01 X-2.6476 Y14.0098 
G01 X-2.8404 Y14.0403 
G01 X-3.0261 Y14.1007 
G01 X-3.2000 Y14.1893 
G01 X-3.3579 Y14.3040 
G01 X-3.4960 Y14.4421 
G01 X-3.6107 Y14.6000 
G01 X-3.6993 Y14.7739 
G01 X-3.7597 Y14.9596 
G01 X-3.7902 Y15.1524 
G00 Z2.0000 
G00 X-3.7902 Y10.0724 
G01 Z-0.1500 F100.00 
G01 X-3.7902 Y10.2676 F208.00 
G01 X-3.7597 Y10.4604 
G01 X-3.6993 Y10.6461 
G01 X-3.6107 Y10.8200 
G01 X-3.4960 Y10.9779 
G01 X-3.3579 Y11.1160 
G01 X-3.2000 Y11.2307 
G01 X-3.0261 Y11.3193 
G01 X-2.8404 Y11.3797 
G01 X-2.6476 Y11.4102 
G01 X-2.4524 Y11.4102 
G01 X-2.2596 Y11.3797 
G01 X-2.0739 Y11.3193 
G01 X-1.9000 Y11.2307 
G01 X-1.7421 Y11.1160 
G01 X-1.6040 Y10.9779 
G01 X-1.4893 Y10.8200 
G01 X-1.4007 Y10.6461 
G01 X-1.3403 Y10.4604 
G01 X-1.3098 Y10.2676 
G01 X-1.3098 Y10.0724 
G01 X-1.3403 Y9.8796 
G01 X-1.4007 Y9.6939 
G01 X-1.4893 Y9.5200 
G01 X-1.6040 Y9.3621 
G01 X-1.7421 Y9.2240 
G01 X-1.9000 Y9.1093 
G01 X-2.0739 Y9.0207 
G01 X-2.2596 Y8.9603 
G01 X-2.4524 Y8.9298 
G01 X-2.6476 Y8.9298 
G01 X-2.8404 Y8.9603 
G01 X-3.0261 Y9.0207 
G01 X-3.2000 Y9.1093 
G01 X-3.3579 Y9.2240 
G01 X-3.4960 Y9.3621 
G01 X-3.6107 Y9.5200 
G01 X-3.6993 Y9.6939 
G01 X-3.7597 Y9.8796 
G01 X-3.7902 Y10.0724 
G00 Z2.0000 
G00 X-3.7902 Y7.5324 
G01 Z-0.1500 F100.00 
G01 X-3.7902 Y7.7276 F208.00 
G01 X-3.7597 Y7.9204 
G01 X-3.6993 Y8.1061 
G01 X-3.6107 Y8.2800 
G01 X-3.4960 Y8.4379 
G01 X-3.3579 Y8.5760 
G01 X-3.2000 Y8.6907 
G01 X-3.0261 Y8.7793 
G01 X-2.8404 Y8.8397 
G01 X-2.6476 Y8.8702 
G01 X-2.4524 Y8.8702 
G01 X-2.2596 Y8.8397 
G01 X-2.0739 Y8.7793 
G01 X-1.9000 Y8.6907 
G01 X-1.7421 Y8.5760 
G01 X-1.6040 Y8.4379 
G01 X-1.4893 Y8.2800 
G01 X-1.4007 Y8.1061 
G01 X-1.3403 Y7.9204 
G01 X-1.3098 Y7.7276 
G01 X-1.3098 Y7.5324 
G01 X-1.3403 Y7.3396 
G01 X-1.4007 Y7.1539 
G01 X-1.4893 Y6.9800 
G01 X-1.6040 Y6.8221 
G01 X-1.7421 Y6.6840 
G01 X-1.9000 Y6.5693 
G01 X-2.0739 Y6.4807 
G01 X-2.2596 Y6.4203 
G01 X-2.4524 Y6.3898 
G01 X-2.6476 Y6.3898 
G01 X-2.8404 Y6.4203 
G01 X-3.0261 Y6.4807 
G01 X-3.2000 Y6.5693 
G01 X-3.3579 Y6.6840 
G01 X-3.4960 Y6.8221 
G01 X-3.6107 Y6.9800 
G01 X-3.6993 Y7.1539 
G01 X-3.7597 Y7.3396 
G01 X-3.7902 Y7.5324 
G00 Z2.0000 
G00 X-3.7902 Y4.9924 
G01 Z-0.1500 F100.00 
G01 X-3.7902 Y5.1876 F208.00 
G01 X-3.7597 Y5.3804 
G01 X-3.6993 Y5.5661 
G01 X-3.6107 Y5.7400 
G01 X-3.4960 Y5.8979 
G01 X-3.3579 Y6.0360 
G01 X-3.2000 Y6.1507 
G01 X-3.0261 Y6.2393 
G01 X-2.8404 Y6.2997 
G01 X-2.6476 Y6.3302 
G01 X-2.4524 Y6.3302 
G01 X-2.2596 Y6.2997 
G01 X-2.0739 Y6.2393 
G01 X-1.9000 Y6.1507 
G01 X-1.7421 Y6.0360 
G01 X-1.6040 Y5.8979 
G01 X-1.4893 Y5.7400 
G01 X-1.4007 Y5.5661 
G01 X-1.3403 Y5.3804 
G01 X-1.3098 Y5.1876 
G01 X-1.3098 Y4.9924 
G01 X-1.3403 Y4.7996 
G01 X-1.4007 Y4.6139 
G01 X-1.4893 Y4.4400 
G01 X-1.6040 Y4.2821 
G01 X-1.7421 Y4.1440 
G01 X-1.9000 Y4.0293 
G01 X-2.0739 Y3.9407 
G01 X-2.2596 Y3.8803 
G01 X-2.4524 Y3.8498 
G01 X-2.6476 Y3.8498 
G01 X-2.8404 Y3.8803 
G01 X-3.0261 Y3.9407 
G01 X-3.2000 Y4.0293 
G01 X-3.3579 Y4.1440 
G01 X-3.4960 Y4.2821 
G01 X-3.6107 Y4.4400 
G01 X-3.6993 Y4.6139 
G01 X-3.7597 Y4.7996 
G01 X-3.7902 Y4.9924 
G00 Z2.0000 
G00 X-3.7902 Y2.4524 
G01 Z-0.1500 F100.00 
G01 X-3.7902 Y2.6476 F208.00 
G01 X-3.7597 Y2.8404 
G01 X-3.6993 Y3.0261 
G01 X-3.6107 Y3.2000 
G01 X-3.4960 Y3.3579 
G01 X-3.3579 Y3.4960 
G01 X-3.2000 Y3.6107 
G01 X-3.0261 Y3.6993 
G01 X-2.8404 Y3.7597 
G01 X-2.6476 Y3.7902 
G01 X-2.4524 Y3.7902 
G01 X-2.2596 Y3.7597 
G01 X-2.0739 Y3.6993 
G01 X-1.9000 Y3.6107 
G01 X-1.7421 Y3.4960 
G01 X-1.6040 Y3.3579 
G01 X-1.4893 Y3.2000 
G01 X-1.4007 Y3.0261 
G01 X-1.3403 Y2.8404 
G01 X-1.3098 Y2.6476 
G01 X-1.3098 Y2.4524 
G01 X-1.3403 Y2.2596 
G01 X-1.4007 Y2.0739 
G01 X-1.4893 Y1.9000 
G01 X-1.6040 Y1.7421 
G01 X-1.7421 Y1.6040 
G01 X-1.9000 Y1.4893 
G01 X-2.0739 Y1.4007 
G01 X-2.2596 Y1.3403 
G01 X-2.4524 Y1.3098 
G01 X-2.6476 Y1.3098 
G01 X-2.8404 Y1.3403 
G01 X-3.0261 Y1.4007 
G01 X-3.2000 Y1.4893 
G01 X-3.3579 Y1.6040 
G01 X-3.4960 Y1.7421 
G01 X-3.6107 Y1.9000 
G01 X-3.6993 Y2.0739 
G01 X-3.7597 Y2.2596 
G01 X-3.7902 Y2.4524 
G00 Z2.0000 
G00 X-26.2607 Y48.9200 
G01 Z-0.1500 F100.00 
G01 X-26.1460 Y49.0779 F208.00 
G01 X-26.0079 Y49.2160 
G01 X-25.8500 Y49.3307 
G01 X-25.6761 Y49.4193 
G01 X-25.4904 Y49.4797 
G01 X-25.2976 Y49.5102 
G01 X-25.1024 Y49.5102 
G01 X-24.9096 Y49.4797 
G01 X-24.7239 Y49.4193 
G01 X-24.5500 Y49.3307 
G01 X-24.3921 Y49.2160 
G01 X-24.2540 Y49.0779 
G01 X-24.1393 Y48.9200 
G01 X-24.0507 Y48.7461 
G01 X-23.9903 Y48.5604 
G01 X-23.9598 Y48.3676 
G01 X-23.9598 Y48.1724 
G01 X-23.9903 Y47.9796 
G01 X-24.0507 Y47.7939 
G01 X-24.1393 Y47.6200 
G01 X-24.2540 Y47.4621 
G01 X-24.3921 Y47.3240 
G01 X-24.5500 Y47.2093 
G01 X-24.7239 Y47.1207 
G01 X-24.9096 Y47.0603 
G01 X-25.1024 Y47.0298 
G01 X-25.2976 Y47.0298 
G01 X-25.4904 Y47.0603 
G01 X-25.6761 Y47.1207 
G01 X-25.8500 Y47.2093 
G01 X-26.0079 Y47.3240 
G01 X-26.1460 Y47.4621 
G01 X-26.2607 Y47.6200 
G01 X-26.3021 Y47.7013 
G01 X-26.3870 Y47.5844 
G01 X-26.5024 Y47.4690 
G01 X-26.6345 Y47.3731 
G01 X-26.7799 Y47.2990 
G01 X-26.9352 Y47.2485 
G01 X-27.0964 Y47.2230 
G01 X-28.7836 Y47.2230 
G01 X-28.9448 Y47.2485 
G01 X-29.1001 Y47.2990 
G01 X-29.2455 Y47.3731 
G01 X-29.3776 Y47.4690 
G01 X-29.4930 Y47.5844 
G01 X-29.5889 Y47.7165 
G01 X-29.6630 Y47.8619 
G01 X-29.7135 Y48.0172 
G01 X-29.7390 Y48.1784 
G01 X-29.7390 Y48.3416 
G01 X-29.7135 Y48.5028 
G01 X-29.6630 Y48.6581 
G01 X-29.5889 Y48.8035 
G01 X-29.4930 Y48.9356 
G01 X-29.3776 Y49.0510 
G01 X-29.2455 Y49.1469 
G01 X-29.1001 Y49.2210 
G01 X-28.9448 Y49.2715 
G01 X-28.7836 Y49.2970 
G01 X-27.0964 Y49.2970 
G01 X-26.9352 Y49.2715 
G01 X-26.7799 Y49.2210 
G01 X-26.6345 Y49.1469 
G01 X-26.5024 Y49.0510 
G01 X-26.3870 Y48.9356 
G01 X-26.3081 Y48.8270 
G01 X-26.2607 Y48.9200 
G00 Z2.0000 
G00 X-26.1460 Y46.5379 
G01 Z-0.1500 F100.00 
G01 X-26.0079 Y46.6760 F208.00 
G01 X-25.8500 Y46.7907 
G01 X-25.6761 Y46.8793 
G01 X-25.4904 Y46.9397 
G01 X-25.2976 Y46.9702 
G01 X-25.1024 Y46.9702 
G01 X-24.9096 Y46.9397 
G01 X-24.7239 Y46.8793 
G01 X-24.5500 Y46.7907 
G01 X-24.3921 Y46.6760 
G01 X-24.2540 Y46.5379 
G01 X-24.1621 Y46.4114 
G01 X-24.0729 Y46.4114 
G01 X-23.9412 Y46.3852 
G01 X-23.8172 Y46.3338 
G01 X-23.7056 Y46.2593 
G01 X-23.6107 Y46.1644 
G01 X-21.0607 Y43.6144 
G01 X-20.9862 Y43.5028 
G01 X-20.9348 Y43.3788 
G01 X-20.9086 Y43.2471 
G01 X-20.9086 Y37.1122 
G01 X-20.0378 Y36.2414 
G01 X-16.0251 Y36.2414 
G01 X-15.6695 Y36.5970 
G01 X-14.8105 Y36.5970 
G01 X-14.2030 Y35.9895 
G01 X-14.2030 Y35.1305 
G01 X-14.8105 Y34.5230 
G01 X-15.6695 Y34.5230 
G01 X-16.0251 Y34.8786 
G01 X-20.3871 Y34.8786 
G01 X-20.5188 Y34.9048 
G01 X-20.6428 Y34.9562 
G01 X-20.7544 Y35.0307 
G01 X-20.8493 Y35.1256 
G01 X-22.0244 Y36.3007 
G01 X-22.1193 Y36.3956 
G01 X-22.1938 Y36.5072 
G01 X-22.2452 Y36.6312 
G01 X-22.2714 Y36.7629 
G01 X-22.2714 Y42.8978 
G01 X-24.2749 Y44.9012 
G01 X-24.3921 Y44.7840 
G01 X-24.5500 Y44.6693 
G01 X-24.7239 Y44.5807 
G01 X-24.9096 Y44.5203 
G01 X-25.1024 Y44.4898 
G01 X-25.2976 Y44.4898 
G01 X-25.4904 Y44.5203 
G01 X-25.6761 Y44.5807 
G01 X-25.8500 Y44.6693 
G01 X-26.0079 Y44.7840 
G01 X-26.1460 Y44.9221 
G01 X-26.2379 Y45.0486 
G01 X-26.3840 Y45.0486 
G01 X-26.3870 Y45.0444 
G01 X-26.5024 Y44.9290 
G01 X-26.6345 Y44.8331 
G01 X-26.7799 Y44.7590 
G01 X-26.9352 Y44.7085 
G01 X-27.0964 Y44.6830 
G01 X-28.7836 Y44.6830 
G01 X-28.9448 Y44.7085 
G01 X-29.1001 Y44.7590 
G01 X-29.2455 Y44.8331 
G01 X-29.3776 Y44.9290 
G01 X-29.4930 Y45.0444 
G01 X-29.5889 Y45.1765 
G01 X-29.6630 Y45.3219 
G01 X-29.7135 Y45.4772 
G01 X-29.7390 Y45.6384 
G01 X-29.7390 Y45.8016 
G01 X-29.7135 Y45.9628 
G01 X-29.6630 Y46.1181 
G01 X-29.5889 Y46.2635 
G01 X-29.4930 Y46.3956 
G01 X-29.3776 Y46.5110 
G01 X-29.2455 Y46.6069 
G01 X-29.1001 Y46.6810 
G01 X-28.9448 Y46.7315 
G01 X-28.7836 Y46.7570 
G01 X-27.0964 Y46.7570 
G01 X-26.9352 Y46.7315 
G01 X-26.7799 Y46.6810 
G01 X-26.6345 Y46.6069 
G01 X-26.5024 Y46.5110 
G01 X-26.4029 Y46.4114 
G01 X-26.2379 Y46.4114 
G01 X-26.1460 Y46.5379 
G00 Z2.0000 
G00 X-26.2607 Y43.8400 
G01 Z-0.1500 F100.00 
G01 X-26.1460 Y43.9979 F208.00 
G01 X-26.0079 Y44.1360 
G01 X-25.8500 Y44.2507 
G01 X-25.6761 Y44.3393 
G01 X-25.4904 Y44.3997 
G01 X-25.2976 Y44.4302 
G01 X-25.1024 Y44.4302 
G01 X-24.9096 Y44.3997 
G01 X-24.7239 Y44.3393 
G01 X-24.5500 Y44.2507 
G01 X-24.3921 Y44.1360 
G01 X-24.2540 Y43.9979 
G01 X-24.1393 Y43.8400 
G01 X-24.0507 Y43.6661 
G01 X-23.9903 Y43.4804 
G01 X-23.9598 Y43.2876 
G01 X-23.9598 Y43.0924 
G01 X-23.9903 Y42.8996 
G01 X-24.0507 Y42.7139 
G01 X-24.1393 Y42.5400 
G01 X-24.2540 Y42.3821 
G01 X-24.3921 Y42.2440 
G01 X-24.5500 Y42.1293 
G01 X-24.7239 Y42.0407 
G01 X-24.9096 Y41.9803 
G01 X-25.1024 Y41.9498 
G01 X-25.2976 Y41.9498 
G01 X-25.4904 Y41.9803 
G01 X-25.6761 Y42.0407 
G01 X-25.8500 Y42.1293 
G01 X-26.0079 Y42.2440 
G01 X-26.1460 Y42.3821 
G01 X-26.2607 Y42.5400 
G01 X-26.3021 Y42.6213 
G01 X-26.3870 Y42.5044 
G01 X-26.5024 Y42.3890 
G01 X-26.6345 Y42.2931 
G01 X-26.7799 Y42.2190 
G01 X-26.9352 Y42.1685 
G01 X-27.0964 Y42.1430 
G01 X-28.7836 Y42.1430 
G01 X-28.9448 Y42.1685 
G01 X-29.1001 Y42.2190 
G01 X-29.2455 Y42.2931 
G01 X-29.3776 Y42.3890 
G01 X-29.4930 Y42.5044 
G01 X-29.5889 Y42.6365 
G01 X-29.6630 Y42.7819 
G01 X-29.7135 Y42.9372 
G01 X-29.7390 Y43.0984 
G01 X-29.7390 Y43.2616 
G01 X-29.7135 Y43.4228 
G01 X-29.6630 Y43.5781 
G01 X-29.5889 Y43.7235 
G01 X-29.4930 Y43.8556 
G01 X-29.3776 Y43.9710 
G01 X-29.2455 Y44.0669 
G01 X-29.1001 Y44.1410 
G01 X-28.9448 Y44.1915 
G01 X-28.7836 Y44.2170 
G01 X-27.0964 Y44.2170 
G01 X-26.9352 Y44.1915 
G01 X-26.7799 Y44.1410 
G01 X-26.6345 Y44.0669 
G01 X-26.5024 Y43.9710 
G01 X-26.3870 Y43.8556 
G01 X-26.3081 Y43.7470 
G01 X-26.2607 Y43.8400 
G00 Z2.0000 
G00 X-26.2607 Y41.3000 
G01 Z-0.1500 F100.00 
G01 X-26.1460 Y41.4579 F208.00 
G01 X-26.0079 Y41.5960 
G01 X-25.8500 Y41.7107 
G01 X-25.6761 Y41.7993 
G01 X-25.4904 Y41.8597 
G01 X-25.2976 Y41.8902 
G01 X-25.1024 Y41.8902 
G01 X-24.9096 Y41.8597 
G01 X-24.7239 Y41.7993 
G01 X-24.5500 Y41.7107 
G01 X-24.3921 Y41.5960 
G01 X-24.2540 Y41.4579 
G01 X-24.1393 Y41.3000 
G01 X-24.0507 Y41.1261 
G01 X-23.9903 Y40.9404 
G01 X-23.9598 Y40.7476 
G01 X-23.9598 Y40.5524 
G01 X-23.9903 Y40.3596 
G01 X-24.0507 Y40.1739 
G01 X-24.1393 Y40.0000 
G01 X-24.2540 Y39.8421 
G01 X-24.3921 Y39.7040 
G01 X-24.5500 Y39.5893 
G01 X-24.7239 Y39.5007 
G01 X-24.9096 Y39.4403 
G01 X-25.1024 Y39.4098 
G01 X-25.2976 Y39.4098 
G01 X-25.4904 Y39.4403 
G01 X-25.6761 Y39.5007 
G01 X-25.8500 Y39.5893 
G01 X-26.0079 Y39.7040 
G01 X-26.1460 Y39.8421 
G01 X-26.2607 Y40.0000 
G01 X-26.3021 Y40.0813 
G01 X-26.3870 Y39.9644 
G01 X-26.5024 Y39.8490 
G01 X-26.6345 Y39.7531 
G01 X-26.7799 Y39.6790 
G01 X-26.9352 Y39.6285 
G01 X-27.0964 Y39.6030 
G01 X-28.7836 Y39.6030 
G01 X-28.9448 Y39.6285 
G01 X-29.1001 Y39.6790 
G01 X-29.2455 Y39.7531 
G01 X-29.3776 Y39.8490 
G01 X-29.4930 Y39.9644 
G01 X-29.5889 Y40.0965 
G01 X-29.6630 Y40.2419 
G01 X-29.7135 Y40.3972 
G01 X-29.7390 Y40.5584 
G01 X-29.7390 Y40.7216 
G01 X-29.7135 Y40.8828 
G01 X-29.6630 Y41.0381 
G01 X-29.5889 Y41.1835 
G01 X-29.4930 Y41.3156 
G01 X-29.3776 Y41.4310 
G01 X-29.2455 Y41.5269 
G01 X-29.1001 Y41.6010 
G01 X-28.9448 Y41.6515 
G01 X-28.7836 Y41.6770 
G01 X-27.0964 Y41.6770 
G01 X-26.9352 Y41.6515 
G01 X-26.7799 Y41.6010 
G01 X-26.6345 Y41.5269 
G01 X-26.5024 Y41.4310 
G01 X-26.3870 Y41.3156 
G01 X-26.3081 Y41.2070 
G01 X-26.2607 Y41.3000 
G00 Z2.0000 
G00 X-26.2607 Y38.7600 
G01 Z-0.1500 F100.00 
G01 X-26.1460 Y38.9179 F208.00 
G01 X-26.0079 Y39.0560 
G01 X-25.8500 Y39.1707 
G01 X-25.6761 Y39.2593 
G01 X-25.4904 Y39.3197 
G01 X-25.2976 Y39.3502 
G01 X-25.1024 Y39.3502 
G01 X-24.9096 Y39.3197 
G01 X-24.7239 Y39.2593 
G01 X-24.5500 Y39.1707 
G01 X-24.3921 Y39.0560 
G01 X-24.2540 Y38.9179 
G01 X-24.1393 Y38.7600 
G01 X-24.0507 Y38.5861 
G01 X-23.9903 Y38.4004 
G01 X-23.9598 Y38.2076 
G01 X-23.9598 Y38.0124 
G01 X-23.9903 Y37.8196 
G01 X-24.0507 Y37.6339 
G01 X-24.1393 Y37.4600 
G01 X-24.2540 Y37.3021 
G01 X-24.3921 Y37.1640 
G01 X-24.5500 Y37.0493 
G01 X-24.7239 Y36.9607 
G01 X-24.9096 Y36.9003 
G01 X-25.1024 Y36.8698 
G01 X-25.2976 Y36.8698 
G01 X-25.4904 Y36.9003 
G01 X-25.6761 Y36.9607 
G01 X-25.8500 Y37.0493 
G01 X-26.0079 Y37.1640 
G01 X-26.1460 Y37.3021 
G01 X-26.2607 Y37.4600 
G01 X-26.3021 Y37.5413 
G01 X-26.3870 Y37.4244 
G01 X-26.5024 Y37.3090 
G01 X-26.6345 Y37.2131 
G01 X-26.7799 Y37.1390 
G01 X-26.9352 Y37.0885 
G01 X-27.0964 Y37.0630 
G01 X-28.7836 Y37.0630 
G01 X-28.9448 Y37.0885 
G01 X-29.1001 Y37.1390 
G01 X-29.2455 Y37.2131 
G01 X-29.3776 Y37.3090 
G01 X-29.4930 Y37.4244 
G01 X-29.5889 Y37.5565 
G01 X-29.6630 Y37.7019 
G01 X-29.7135 Y37.8572 
G01 X-29.7390 Y38.0184 
G01 X-29.7390 Y38.1816 
G01 X-29.7135 Y38.3428 
G01 X-29.6630 Y38.4981 
G01 X-29.5889 Y38.6435 
G01 X-29.4930 Y38.7756 
G01 X-29.3776 Y38.8910 
G01 X-29.2455 Y38.9869 
G01 X-29.1001 Y39.0610 
G01 X-28.9448 Y39.1115 
G01 X-28.7836 Y39.1370 
G01 X-27.0964 Y39.1370 
G01 X-26.9352 Y39.1115 
G01 X-26.7799 Y39.0610 
G01 X-26.6345 Y38.9869 
G01 X-26.5024 Y38.8910 
G01 X-26.3870 Y38.7756 
G01 X-26.3081 Y38.6670 
G01 X-26.2607 Y38.7600 
G00 Z2.0000 
G00 X-26.2607 Y36.2200 
G01 Z-0.1500 F100.00 
G01 X-26.1460 Y36.3779 F208.00 
G01 X-26.0079 Y36.5160 
G01 X-25.8500 Y36.6307 
G01 X-25.6761 Y36.7193 
G01 X-25.4904 Y36.7797 
G01 X-25.2976 Y36.8102 
G01 X-25.1024 Y36.8102 
G01 X-24.9096 Y36.7797 
G01 X-24.7239 Y36.7193 
G01 X-24.5500 Y36.6307 
G01 X-24.3921 Y36.5160 
G01 X-24.2540 Y36.3779 
G01 X-24.1393 Y36.2200 
G01 X-24.0507 Y36.0461 
G01 X-23.9903 Y35.8604 
G01 X-23.9598 Y35.6676 
G01 X-23.9598 Y35.4724 
G01 X-23.9903 Y35.2796 
G01 X-24.0507 Y35.0939 
G01 X-24.1393 Y34.9200 
G01 X-24.2540 Y34.7621 
G01 X-24.3921 Y34.6240 
G01 X-24.5500 Y34.5093 
G01 X-24.7239 Y34.4207 
G01 X-24.9096 Y34.3603 
G01 X-25.1024 Y34.3298 
G01 X-25.2976 Y34.3298 
G01 X-25.4904 Y34.3603 
G01 X-25.6761 Y34.4207 
G01 X-25.8500 Y34.5093 
G01 X-26.0079 Y34.6240 
G01 X-26.1460 Y34.7621 
G01 X-26.2607 Y34.9200 
G01 X-26.3021 Y35.0013 
G01 X-26.3870 Y34.8844 
G01 X-26.5024 Y34.7690 
G01 X-26.6345 Y34.6731 
G01 X-26.7799 Y34.5990 
G01 X-26.9352 Y34.5485 
G01 X-27.0964 Y34.5230 
G01 X-28.7836 Y34.5230 
G01 X-28.9448 Y34.5485 
G01 X-29.1001 Y34.5990 
G01 X-29.2455 Y34.6731 
G01 X-29.3776 Y34.7690 
G01 X-29.4930 Y34.8844 
G01 X-29.5889 Y35.0165 
G01 X-29.6630 Y35.1619 
G01 X-29.7135 Y35.3172 
G01 X-29.7390 Y35.4784 
G01 X-29.7390 Y35.6416 
G01 X-29.7135 Y35.8028 
G01 X-29.6630 Y35.9581 
G01 X-29.5889 Y36.1035 
G01 X-29.4930 Y36.2356 
G01 X-29.3776 Y36.3510 
G01 X-29.2455 Y36.4469 
G01 X-29.1001 Y36.5210 
G01 X-28.9448 Y36.5715 
G01 X-28.7836 Y36.5970 
G01 X-27.0964 Y36.5970 
G01 X-26.9352 Y36.5715 
G01 X-26.7799 Y36.5210 
G01 X-26.6345 Y36.4469 
G01 X-26.5024 Y36.3510 
G01 X-26.3870 Y36.2356 
G01 X-26.3081 Y36.1270 
G01 X-26.2607 Y36.2200 
G00 Z2.0000 
G00 X-26.1460 Y33.8379 
G01 Z-0.1500 F100.00 
G01 X-26.0079 Y33.9760 F208.00 
G01 X-25.8500 Y34.0907 
G01 X-25.6761 Y34.1793 
G01 X-25.4904 Y34.2397 
G01 X-25.2976 Y34.2702 
G01 X-25.1024 Y34.2702 
G01 X-24.9096 Y34.2397 
G01 X-24.7239 Y34.1793 
G01 X-24.5500 Y34.0907 
G01 X-24.3921 Y33.9760 
G01 X-24.2540 Y33.8379 
G01 X-24.1621 Y33.7114 
G01 X-16.0151 Y33.7114 
G01 X-15.6695 Y34.0570 
G01 X-14.8105 Y34.0570 
G01 X-14.2030 Y33.4495 
G01 X-14.2030 Y32.5905 
G01 X-14.8105 Y31.9830 
G01 X-15.6695 Y31.9830 
G01 X-16.0351 Y32.3486 
G01 X-24.1621 Y32.3486 
G01 X-24.2540 Y32.2221 
G01 X-24.3921 Y32.0840 
G01 X-24.5500 Y31.9693 
G01 X-24.7239 Y31.8807 
G01 X-24.9096 Y31.8203 
G01 X-25.1024 Y31.7898 
G01 X-25.2976 Y31.7898 
G01 X-25.4904 Y31.8203 
G01 X-25.6761 Y31.8807 
G01 X-25.8500 Y31.9693 
G01 X-26.0079 Y32.0840 
G01 X-26.1460 Y32.2221 
G01 X-26.2379 Y32.3486 
G01 X-26.3840 Y32.3486 
G01 X-26.3870 Y32.3444 
G01 X-26.5024 Y32.2290 
G01 X-26.6345 Y32.1331 
G01 X-26.7799 Y32.0590 
G01 X-26.9352 Y32.0085 
G01 X-27.0964 Y31.9830 
G01 X-28.7836 Y31.9830 
G01 X-28.9448 Y32.0085 
G01 X-29.1001 Y32.0590 
G01 X-29.2455 Y32.1331 
G01 X-29.3776 Y32.2290 
G01 X-29.4930 Y32.3444 
G01 X-29.5889 Y32.4765 
G01 X-29.6630 Y32.6219 
G01 X-29.7135 Y32.7772 
G01 X-29.7390 Y32.9384 
G01 X-29.7390 Y33.1016 
G01 X-29.7135 Y33.2628 
G01 X-29.6630 Y33.4181 
G01 X-29.5889 Y33.5635 
G01 X-29.4930 Y33.6956 
G01 X-29.3776 Y33.8110 
G01 X-29.2455 Y33.9069 
G01 X-29.1001 Y33.9810 
G01 X-28.9448 Y34.0315 
G01 X-28.7836 Y34.0570 
G01 X-27.0964 Y34.0570 
G01 X-26.9352 Y34.0315 
G01 X-26.7799 Y33.9810 
G01 X-26.6345 Y33.9069 
G01 X-26.5024 Y33.8110 
G01 X-26.4029 Y33.7114 
G01 X-26.2379 Y33.7114 
G01 X-26.1460 Y33.8379 
G00 Z2.0000 
G00 X-26.2607 Y26.0600 
G01 Z-0.1500 F100.00 
G01 X-26.1460 Y26.2179 F208.00 
G01 X-26.0079 Y26.3560 
G01 X-25.8500 Y26.4707 
G01 X-25.6761 Y26.5593 
G01 X-25.4904 Y26.6197 
G01 X-25.2976 Y26.6502 
G01 X-25.1024 Y26.6502 
G01 X-24.9096 Y26.6197 
G01 X-24.7239 Y26.5593 
G01 X-24.5500 Y26.4707 
G01 X-24.3921 Y26.3560 
G01 X-24.2540 Y26.2179 
G01 X-24.1393 Y26.0600 
G01 X-24.0507 Y25.8861 
G01 X-23.9903 Y25.7004 
G01 X-23.9598 Y25.5076 
G01 X-23.9598 Y25.3124 
G01 X-23.9903 Y25.1196 
G01 X-24.0507 Y24.9339 
G01 X-24.1393 Y24.7600 
G01 X-24.2540 Y24.6021 
G01 X-24.3921 Y24.4640 
G01 X-24.5500 Y24.3493 
G01 X-24.7239 Y24.2607 
G01 X-24.9096 Y24.2003 
G01 X-25.1024 Y24.1698 
G01 X-25.2976 Y24.1698 
G01 X-25.4904 Y24.2003 
G01 X-25.6761 Y24.2607 
G01 X-25.8500 Y24.3493 
G01 X-26.0079 Y24.4640 
